jelie-05/inverse-kinematics/panda_ik_data.csv
q1,q2,q3,q4,q5,q6,q7,x,y,z,qw,qx,qy,qz
2.1022361019327698,-0.8817667388134744,2.268939439164338,-0.07148068130044472,1.6569068104568543,0.5744983974411632,-2.262049806697959,0.35897932635758745,-0.46395063449827223,0.6706795580142357,0.008036229493117192,-0.26773527732430874,-0.9094268554317485,-0.31811324227565657
2.401487593570065,1.487017879664569,-2.724654572373343,-3.048769734226273,0.30490055263348204,2.4057532600777103,-1.7295556847581397,0.2143361455746005,-0.07988025881939376,0.5041386797395987,0.4031466782292969,0.5451732703447145,0.7320689559109776,-0.06583240027329107
-1.105946723271437,-0.24119984356614177,0.15671835157622338,-0.879395881148791,1.9841855137348552,3.418810870335843,-1.1102080820655165,0.0831978779840061,-0.25106532025377737,1.055849344420366,0.42992982821646264,0.26438886326452493,-0.27038672984571804,0.8198474785682963
0.4664713539438403,-0.8995310732706829,0.5261677656989034,-3.041211524563625,-0.7760725931200274,1.9733817139567162,-2.8389034311708383,0.20231934454387768,0.15406083144381036,0.35086064099172565,-0.06131650810518596,-0.6334162091326093,0.5671386802416604,-0.5228555337907486
-0.9697383676816613,1.6473476480520461,0.664152000583695,-2.285603763030363,0.032496269385307475,0.8080774810287283,1.8371259359725802,0.17513941284745585,0.10865380282874773,0.07578392930794221,0.0005647432557341903,0.2679236875978634,0.16335897731611546,-0.9494895592997585
2.3270203034770804,1.3994962823413646,-0.3855181963578884,-2.405952764653401,2.6868359035723217,0.43883558489881835,1.0215563864748427,-0.10541464895249225,0.2812847849885194,-0.05832303911297956,-0.14333484944803274,0.5269640426274254,-0.17238771618343204,-0.8197844192350392
-0.8060710407037295,-0.7906432071216629,1.2195364860326534,-3.0639096024400962,0.09322826781396909,2.1921007804443127,1.3843027983392235,0.2392476888001373,-0.017927447829998583,0.23389942804160993,0.38661307934571054,0.8786583492954265,-0.2694400084729642,-0.07675880357556523
2.3370188705627277,-1.3293862467595998,-1.617334129956492,-3.063723668931599,0.8791910492056663,3.3644437611548046,-2.666390930344807,0.1141408664797523,0.2658927111336912,0.20559882857009687,-0.2814127504487595,0.00459492961271224,0.8380565469227022,0.467383113373509
0.531714274131287,-1.654255721635904,-0.1680194323610209,-0.4458662924392405,1.778128701722181,2.2389803416928546,-2.5265711459809346,-0.7183253647898941,-0.43350730761645695,0.49181273958761645,0.5955810939243396,-0.537167107018986,-0.33766390390955053,0.49266392976683493
-2.7486297553264505,-0.2436657180834798,0.9406897448775622,-0.1467050998098438,0.9777420724971426,3.1548220430592004,-2.747239835636739,0.1072631239988725,0.07158795488423343,1.1464383610636835,0.8118352757136873,-0.035975079245508385,0.08524591409629945,-0.5765088142518255
-0.7100740831762047,1.0237979267216955,1.9252590187533074,-0.14570834628848495,-1.2175768744597242,3.6052511551675,-2.4835368280397816,0.4381193086960548,-0.4044032834356136,0.8349938899210253,0.9448928142406419,0.24707604815253364,0.1958457397252411,-0.08817846821757946
-1.86130220605328,0.0026278278765270446,0.3050652467416608,-2.425384260147769,-1.3919187156612522,0.44501638695090784,-0.8634668899285853,-0.11858557938763714,-0.34349663522127366,0.4421749160965517,-0.6620803298845699,0.4239272063588343,-0.0660620901045137,-0.6144681934321379
0.7780733384541523,1.4838180306743087,-1.9352595572268396,-1.2823228655411956,-2.826563864123175,0.7864307763638779,2.226792592595593,0.6702087795014393,0.18715925097371514,0.561086340595533,0.5478836978665445,-0.6900080256277485,0.23823020196853098,0.4086058602754114
0.519854893079533,0.878654846844622,2.4545891288617443,-1.3853463691712993,-2.3764111663092047,2.9614867795244324,-2.5254051645877587,-0.12847815201525825,0.30332223845510214,0.9789932177359723,0.8607409662950148,-0.35724561309457054,-0.1535263052383597,0.32852737247612324
0.7110233653270464,0.11789329053252717,2.584048865455545,-1.900784079119403,0.22963038807698943,2.117657253171913,-1.967202029327325,-0.5543068897539928,-0.08274207422799465,0.5756315428812466,-0.17333860110160998,-0.9650019491588779,0.1612040552494357,0.11286372339613215
0.7706053919961331,0.4083788799267518,1.8473339050454833,-1.5088429770888099,-2.729133610572781,0.03340153525647691,1.6990047730107851,-0.14032550008384526,0.3492340885442883,0.8154130529820599,0.1422488446724056,0.7158956439349679,-0.24210393670141536,0.6392529835816017
-1.7124970972440852,-0.3969641782934452,0.885126777265945,-1.5806322260019852,-0.7641323281734942,1.703867580449044,-0.2649749265660226,0.35866547377209357,-0.30616360168002293,0.7918663886246974,0.43603918089977134,0.840113084830849,0.08237562335408954,-0.3119200123321289
1.4914399083969472,-0.6491009240680083,2.776712798204174,-1.4537395065399528,1.8815573531939482,0.27678490880744416,2.638678531244158,-0.07810006050090483,-0.5861742681481477,0.472595010539859,0.722737579269707,-0.10278494932690731,0.5066550221652742,0.45867890099494846
-2.3975353192020394,1.599180103562417,-1.947373717487785,-0.42208593707621933,-2.71743404236961,1.6007341584211545,-2.2361995921028965,-0.6682363320159642,-0.49104098483378,0.3919087050314932,-0.7218020590039883,-0.6725250238767699,-0.11262050089514217,-0.11844198012224522
0.09568111899564746,1.6954015088576195,1.5199844976907966,-0.8167865316327605,-1.691986951154759,2.940324325890466,-0.7397549202869649,0.6752024391913796,0.4699594519102099,0.2874649659682208,0.19685076949018737,0.2565699837039974,0.7699707745216022,0.5500605642980191
1.43280370191107,-0.22532959059901314,1.761458395935708,-2.1236906300858416,-1.2212538859931519,2.9116725889382447,-2.8336553679207297,-0.5691878611013153,-0.11372524539827031,0.4299602063733026,0.44896824448213823,-0.5641465631327933,-0.6756481872107944,0.15383659470636532
1.027779940780086,0.7107947249849835,2.704286144969689,-2.403218652153764,1.8647099381740238,1.8758137851524759,2.6609988579867667,-0.30633223064651344,-0.22770136992351042,0.6588017784490318,0.8163920577231639,0.42833367770239233,0.28975487583659226,-0.25705326405514006
0.707633011414802,-1.0086087882350308,1.4029821973701782,-2.194529382634991,-0.7690939791150173,0.38585330274223284,1.0006382093512207,-0.23168773693653683,0.2213195177051868,0.518656372979035,0.7278347876769844,0.6062566540506932,0.04310423846584671,0.3175711194248243
-1.9972857125823835,0.1836147743948191,-2.7139493681591715,-2.306077764799937,-2.3237280446485356,1.4149408975818913,0.3735450997456544,0.07284212947252253,0.4996072094944425,0.5582964997542842,-0.8446705192598056,-0.03337336034740432,-0.3821687718519761,-0.37331616966539627
-1.5998826140401545,1.4881675362665434,-2.893843496998054,-1.8478357651650976,-0.607545479471868,1.7807387093676446,-0.19402492130899018,-0.09359178069593851,-0.1434581716499889,0.9012794787483854,-0.15265039901043315,-0.2653585874431903,-0.6362811334953784,-0.708116512242121
2.812899240588948,-0.9150145568633873,-0.6388527218352364,-1.0068838094360117,-0.22544239046655035,2.405163789194492,0.5496798868181356,0.3646605188518853,0.18141994269578116,1.041963238435742,-0.7523348515175823,0.3549835526497203,0.38328043583043714,0.40134157029870493
0.9504235403326362,0.9815855182182109,-2.6775539080975355,-2.536967922919661,-1.0749551599370262,3.0289105590600927,2.5789245744269302,0.07914740374959749,-0.34866558420514066,0.6377706317004539,0.5215858869383314,0.2694950291978,-0.6715316703197126,0.45206836600457556
2.6794445399265636,-1.2561978671821419,1.2634241079752315,-1.0270171666977044,-0.7086543291079392,2.5818371928961925,-2.5326955054227183,0.3262600402774465,-0.6765158358358385,0.6670164407259354,0.4434552528848047,-0.031984727169144356,-0.4399993094100406,0.7802083206653695
-2.0786372152413377,1.6566702634763781,0.6876268652535966,-2.429495039168569,0.7098855042770023,0.6065679974889341,2.3412839204967493,0.2090625409581587,-0.14700016536242935,0.15748830112754658,-0.44447236894813075,0.14157822092535344,0.21068140634650176,-0.8590769846882802
2.1110391471080363,-1.6949951664172598,-0.21881079249874746,-1.852395903545699,-0.1783164755292974,1.7501595265351388,-0.32623479973482894,0.2390552958610883,-0.135756217769429,0.8419879825839223,-0.34824665953835926,0.09042601811840886,0.7051668243698415,0.6109722982065348
-1.8057644517866998,0.5411051740845845,0.12579194761706614,-2.224744676623094,2.5017585994939426,1.32326735486815,-2.643061778966477,0.00962609290167342,-0.5725639144238288,0.2233872453226248,0.5930537053036784,0.4588777225711557,-0.11619088042109588,0.6513203648439504
-1.6072073883321494,1.5256376230397724,-0.5689721407979573,-2.038076569521227,1.0588949416809772,2.096666134955123,-0.31394709999204595,-0.2759742508966941,-0.14957709337234065,-0.1613068313315661,-0.4028410623365675,0.473057122662383,-0.775273754278809,-0.11351935130352453
-0.5451907757462378,-0.32793586099154926,-0.13665842706580777,-1.958075477716567,0.36715476776188627,2.143984270834998,1.620141933742246,0.38669415712770316,-0.3088534569726152,0.6701241568718603,-0.2133895200243759,0.647257589413961,-0.6944293465660464,0.23084715358359442
1.4484375359560127,-0.2391299845042143,-1.4392248864581279,-1.5473430586261474,-1.2461711973931697,0.0677090940089422,1.534325163758457,0.3545200989733328,-0.1736551299268391,0.6873217531177261,0.5324973712468428,0.48595891376299855,-0.5556142893373989,-0.4142260798568636
-0.225089708459687,0.431320974602333,-1.2350019755289172,-1.6211299527420213,1.941272558844204,0.8158448733398377,-1.4680544555835602,0.3298135078391022,-0.48086101267738934,0.6084774253369964,-0.10826444539633867,0.5290102662090874,0.4154874969316884,0.731981617256781
-2.01234509235436,1.7357791808395966,-1.8423620432858794,-2.659582223745358,1.5081558602653353,3.1771072842400216,0.9410593663365443,-0.2964183741027254,0.18741916671656889,0.5347323797605779,0.64838945407702,-0.4615229076470586,-0.3687510331263638,-0.48021911366265563
0.9706648384731849,0.11346774660701842,0.08391401832701462,-0.3946224981530677,-0.15436898401295895,1.1437178404096937,2.150063005103416,0.20365345743907898,0.3042963547842661,0.9800909699504516,-0.272916721253869,0.9275709968436721,-0.19964786058076672,0.15896301720839548
2.1554049464412315,0.6041483321140118,-0.1358001247678895,-1.2779433623778171,1.5591508423885307,0.528614942933439,1.5862783706996502,-0.39750658623533136,0.4607917407498636,0.5123809665361816,0.3546748037246312,0.3348463249581367,0.529131600124843,-0.6943367137162247
0.06591425240375282,0.2893217091266842,0.8147396218608742,-1.8649007637197421,-2.318379290332729,2.4578698117719595,0.1522064080733636,0.43766090148086595,0.471346254100146,0.44737496436498636,0.64140830887495,-0.048375742007968986,0.7357004732564212,0.21213199320619247
0.1380932997175064,1.1706342486066017,1.3527795313249444,-0.9572442041281244,-0.37171615911664135,1.8922546583966482,0.859443765448705,0.5480829699278943,0.5478127267548354,0.45237512918429024,-0.40138308388712235,0.8262076908567403,0.3925393169977507,-0.046747792989349723
1.8296635843440119,-0.08201906246909263,-2.874568878000634,-0.8105018909082649,0.06966307417857909,0.3016116814210765,-1.2789919683768862,0.18214396141664235,-0.31892117501848843,0.8098229010178266,-0.2897196238789708,0.8192939479193971,0.49414436761144176,0.025324107091138262
1.1778499740018016,-0.8632683788216458,-2.4008704596892345,-1.1676217965295737,0.42890526897655645,2.838389374428389,2.138318690059345,0.017530142007768118,-0.8022361355520791,0.45353057161430077,-0.3603052315300076,-0.11810774231575583,-0.8305047034924071,0.4080350950766007
2.8466496455167998,0.9719035884961853,-1.3935310983956364,-0.3943872091789915,2.6376511867207078,1.8073301497048349,0.3377287961529669,-0.6566640907563273,0.3247468222321471,0.750730309293417,-0.5885585078755871,0.01782897232378647,0.69760515911152,-0.4082009952635225
-2.217274080370078,0.12207719257192484,-2.4968028603196486,-1.819855600570994,-2.156077842106255,2.688368216156042,0.7604411271087193,-0.04635891821022383,0.5740727546011959,0.6384915118016247,-0.38033850752417936,0.10347535372271638,-0.6513612924521174,-0.6483547929655064
0.4892314781697995,1.596914898177551,0.9040378373712947,-2.7815582905569047,1.566053629988453,1.2628469400645028,-0.8082981791408277,-0.2102251623405311,0.25644973042716684,0.2424656251384436,-0.6671739677612343,0.204017445838456,-0.23117977980346488,-0.6780941586131719
-2.5292409450371585,-1.5533665461989066,-0.992617110311844,-2.7169010241096645,1.2532489969766387,3.6818432790819693,-2.303557714206277,-0.240360877407996,0.29485931191351067,0.4321116655778798,0.5804788209314805,0.23881865074284378,-0.7192036856790027,-0.29791953446040303
-2.2410066983357004,-1.383344499846143,1.6672623543735425,-1.8876408475397959,0.46869728229894614,2.1074940713220682,2.224443970569316,0.5814047098215943,-0.1988014918840737,0.2932168189722526,0.37964360262651864,0.45730546350464407,-0.7583570277329774,0.26765101629092297
-2.257396473711499,-0.6754201727262807,0.16547121559636402,-2.0379228166318635,1.9389010048994062,0.9504880437011574,1.4893168680922515,0.03282946422548601,-0.28878565526235583,0.8244402514070536,-0.6377522200100219,0.4103353213811042,-0.5347217711587255,0.37278634275980405
-1.3277041154386682,-0.31869616240626764,-2.101517097614959,-2.4149810327182495,-1.2927098076196288,2.0814099037655307,-1.9573535315667447,-0.4363846990045731,0.16065014898519436,0.22388174379882816,-0.33272161571343256,0.9265694905536739,0.1239416910425323,0.12411189642280357
-1.8529885497103553,-1.2695046154720508,0.4286648817405925,-1.2834678860173203,-2.739328591291686,2.866910887709949,-1.8502093418696974,0.33291631315654124,0.2358577649322623,0.9594575346886282,-0.36881040114102553,-0.1175700864423237,-0.13773867803935486,-0.9116930510627522
1.882828369673621,0.6398756810042054,-2.8941647425130617,-1.3719175540667705,-0.8691627381146056,1.7938681225217579,2.7383613580204407,0.1279183825998328,-0.15392803104971384,1.0206157730414724,0.21413151954949886,-0.04194460316857651,-0.7582689947274136,0.6143423103087798
1.9643216955265257,-0.6986049198484887,-2.1817801549628357,-0.2259561545268607,0.9792861481166262,0.573607939530222,0.44638242114284754,0.3314102620038972,-0.313017741349438,0.8338555408419137,-0.45558516940102023,0.7739521285595785,0.37604241573382885,0.22810602291260662
1.996215787842512,0.9479100084208314,-0.34724436143770676,-1.7314242773034882,1.3387921045512745,1.476621253707919,-2.437437423204519,-0.1588627870960051,0.547176920409645,0.0578955494426216,-0.5949737634965734,-0.3730216151129668,0.7119356966389198,0.002942662143838509
-1.012225044623572,-0.711503129883172,2.1401433750766947,-1.8643686220504763,1.314955029220521,0.6051331614033674,0.32926443558921514,0.019650989608856334,0.5174221860256872,0.31034573612430594,-0.16604076735294027,0.5186112205827915,0.4455919950601112,-0.7105776800609648
1.446932636462217,-1.0020884723454144,0.19605517588606425,-2.2968361606883443,-1.0676334388680642,2.7269076894395328,-1.9256123815227124,-0.10596161385703948,0.25463212834280274,0.7964161286650338,0.724848930307867,-0.5495145285243681,0.3772041675763803,0.17419766684772534
-0.08594920375365156,1.1068908407153781,2.332064672183441,-1.1942528477239878,0.11402674561655601,0.03880699502400765,1.0911456230106737,0.2769499948170351,0.2207728718071457,0.7374444460331699,0.04098932900365594,0.2930922409221394,0.8860909194931821,-0.3567347692765519
0.5343153360667161,-1.0908325344577277,-0.4231330695225948,-0.5300768388270476,2.366335434394428,0.1955478298639967,0.8819936482286557,-0.46590485488711925,-0.24160852746389408,0.7381834432651825,0.01703284425942203,0.27178120177246123,0.9107945047548216,0.31031956220639656
-1.1942887188749765,-0.48042369923750106,0.2810616902277352,-2.1793454828963545,-2.203676602733712,2.6664359655479255,1.410073536984617,0.318477787545225,-0.33194129731308336,0.6366957845698734,0.768314124680941,0.6255287428722704,0.12536106645977135,0.05188256617076864
2.2752736535142346,1.3152006411854664,0.19408332184183985,-2.2422141765760983,-1.1344607333997094,1.0788844093933294,0.7762144884247664,-0.09107711150693244,0.16867982966190068,-0.06841128047889362,0.8427698956501821,-0.27954307539072776,0.45889399277072745,0.03179426655567852
1.4296367799226952,-0.43005338280264294,-2.1917258226504863,-1.9821624819470913,-0.35020404374952463,2.1523435695037345,-1.3231140645023118,0.4006268479595513,-0.4367528309488952,0.32532611600375316,-0.029579199569977843,0.7249773985120255,0.6876003502502472,0.02717721353029265
-2.852089783465861,0.9897555115818895,-1.3396877771919604,-1.2075033260193906,-1.2964313420331905,1.9789849154134909,0.5319468367710387,-0.6317841111775009,0.3681431568893015,0.5863520449094906,-0.38750205044195124,0.042768677711924497,-0.4558400000678545,-0.8001392975277457
-2.233700913433446,0.16897107613265638,2.4508751957868893,-1.6670090531896615,-1.4094935040595908,0.5129891413491036,-0.4484378491290335,0.4005627938733348,-0.08234426660928465,0.71435606155671,0.26379846638293014,0.7273384219855707,0.22592741675549785,-0.5919003221791149
2.144541739215572,0.30660615410301695,1.1483924333192754,-2.8427915567606905,-1.5722406319524587,0.46852793725216735,-0.9464697291832758,-0.27307807815181767,0.08453505930196113,0.2915150914207947,0.927681444654042,-0.37213508297923803,0.030084786310548645,-0.004186035507872221
-1.9317734220163318,0.5333040201972654,2.1106620055778005,-0.35226510973611314,-0.7202496554785056,3.221109768916967,2.55963152120586,-0.06202805008288325,-0.3246715380479812,1.0969159191182205,-0.5939645863770322,-0.07889450168889317,-0.18170523743247208,0.7797210619335804
-2.6132612201927277,0.6401668212997369,0.41537226167475794,-1.067037618055799,-2.608563507824826,2.0207114933018193,2.779815999293979,-0.5717954967200652,-0.5197319196095436,0.6156255816739424,0.8929900943368356,0.015330847097954958,-0.4473680887686124,-0.04685562607699134
-2.847029654199403,-0.5568748454901564,-2.4654559982166777,-0.7323514291815778,2.262311120864481,0.0885860470413854,-2.502526025086903,0.33588898012643315,0.27130284633333684,0.8196686159319776,0.30533345351372676,0.7880544233169491,0.14195041962497304,-0.5153559802934908
0.21753108055531456,1.0179126598088644,2.866049165900479,-2.624071235838765,-1.9761983951187456,2.6752336045951837,1.1223768383837727,-0.3026065177716112,0.01711773430057989,0.6148582899538858,-0.44994111728059955,-0.34381306649012977,0.6052872701986496,0.5594397973208604
2.5399938493225798,0.7721587591675134,1.3978406358265754,-1.490670250399242,-1.4605592057525985,2.1349457352690755,2.429727468716217,-0.6599804081274327,-0.243142103512845,0.5439675472643031,-0.38722938218461417,0.28099330242811615,0.8717660794458075,-0.10545175338110092
1.4117264723581422,-0.5290080995186,-0.23727794161143168,-0.22762839961794246,-1.7042059314897373,2.448170919293358,-0.20321857017622058,-0.023005038934875356,-0.3257498721352245,1.1201288658321178,0.5832442428576761,0.4277021360317754,-0.026567092191929154,0.6900661023552
0.30437051332529386,-1.2030531115936667,-2.7457643587386453,-0.8021869050000765,-0.19386191412443132,1.962120621083467,0.597130354845322,-0.6985736755707359,-0.38250437166690743,0.20000133654978447,-0.0130957711894394,0.350155925249296,-0.9319171956504305,0.09353966667034701
2.6305863336460598,0.07233169345476065,0.9165048542313188,-1.163897303966379,0.9228945211718265,3.3835384981947456,1.0788805119721192,-0.48972156272394884,-0.07481378440039538,0.9444399744754918,-0.6189905082639837,0.29490071275809804,0.4231100675879005,-0.5923362144927677
2.4424106078763947,-0.9368061591833332,-1.3392603851218878,-0.37813371229093784,-2.2954681405249837,2.390583326555995,-1.7381874418151486,0.6190470811683216,-0.27279470351635016,0.857640387021549,0.687948956358842,0.2514295185102103,0.6327240170571178,-0.2513359284018245
-2.4689795589346,-0.5885593732385666,-1.2309508872733128,-2.343193468329953,2.6768487023568004,3.543533671403485,2.6365445945305743,-0.29382964324016003,0.2526882266695073,0.36180414504179237,-0.2915678052245306,-0.4420567620010053,0.8266297015642765,0.19041368285260182
-1.1067345529480428,-1.7517098026170073,1.778569042324929,-1.8532063682158118,-1.931871626699642,1.2644885918217426,-2.5426662225178296,0.35132199325721697,0.5264505681871515,0.2827710020761022,0.0461536814805415,0.12307513332724292,-0.2690441102528557,-0.9541161438632734
-2.817377549327611,0.7239997830894831,-2.132129932750982,-1.4728258045416902,0.8332090791730224,2.5403145583393005,1.3440772239888736,-0.21595373062990117,0.45214829810491214,0.8896714317977124,0.5963000816790434,-0.6838067540910406,-0.33189634103533855,-0.25822345837741856
0.6894255102995994,-0.6835530580342666,-0.14794624721722816,-2.3954628714496926,0.5005690503261011,2.2412895673066733,-0.34152305912737546,0.3323915156735122,0.20084500534014685,0.6114204410476376,-0.1932711784458842,0.6921498076341647,0.6221834842015411,0.31058429992669895
-2.3715072371264316,0.22043161369735031,0.6681917200259209,-2.26467430790754,-2.1085568599821247,0.539810921705302,-2.739572908611052,-0.19545649173230223,-0.4445528021301014,0.45254312828135,-0.9347811739679577,0.24763364112250005,0.24501411964480493,-0.06949689024826633
0.2030160972808428,-0.8312501841869332,-0.15035370004544557,-2.0959760293188148,-1.890696900723099,0.37801796794885467,-2.8042539267336113,0.10735010437021561,-0.15793118538718115,0.8012588236648266,-0.3759788587461613,0.36368858641161583,0.6846107070122168,-0.5076206159466796
-1.9889467599579818,0.3616930372060052,1.6454625684539708,-1.0821271492853721,0.023681641154245536,2.5079195441803406,-0.33767832539577736,0.37902523976600666,-0.37842478248655126,0.9454438904323811,0.327789632625718,0.7237330836784809,0.16787766700360995,0.5835935822588847
0.41145850266569006,-0.33701686613848736,-0.6292885053908939,-1.0484952926312698,1.4342013895702173,2.8232741942881927,-2.3941202534423165,0.24512007051504756,-0.24677545633616033,1.0652647509482078,0.6997247607376382,0.23452837136081622,0.3095264182041456,0.5996458110178118
-2.1894318995144753,-1.08289559643276,0.7541144619976343,-2.6963877354595924,0.9081535001471375,2.8177376190645345,-1.174215993759966,0.06485470488246467,-0.33867123374327307,0.5712968250238556,0.5200287962878695,0.8480482814613121,-0.04931315905046152,-0.08917609369314147
-0.2167249317166835,-0.8914645967130433,-1.2759906901957858,-0.8141818997892027,-1.812125992214918,3.3728372798542567,0.022635876119607268,-0.4562737968473857,-0.24417969978609588,0.9255325732857231,0.90168964198234,0.352130387976327,-0.10736919251956568,-0.22678588118111914
-2.5091114616504604,0.7669492264817888,1.785965328885982,-2.6240358735895004,0.7835814930533695,2.8902824945177668,1.6448972840183171,0.3286977772637001,-0.3058687935735488,0.32338350338721183,-0.4986815750996052,0.29620325419777693,-0.8142612744784654,0.02364097594281775
-0.9323301493442542,-1.1322792556732715,0.6410164096915607,-0.6945149483995916,-1.6571212624464493,0.1924961224733981,1.2080715702884368,-0.2396899053086628,0.3818517097132987,0.7923496913832996,0.16714733244033095,0.2276884736858069,-0.8871033165298188,0.3650581241535437
-2.378858484043296,1.1536196417866038,1.771788897142581,-0.32830099370391785,0.6655325811946637,3.1057225213509048,2.2672161281706704,-0.4830553475020372,-0.6130026155122303,0.6418887061964709,-0.6600576890139142,-0.49907856363089204,-0.13911891589409933,0.543958051450832
0.8883044248264191,0.8048585990351138,0.5794957656561417,-2.018401304067627,2.610266989925185,1.7895679994584388,-1.8490618380317936,0.03702037649962857,0.6191520772105957,0.16013013988072736,-0.7601878968773201,0.5008333466111315,0.2999735250469976,0.2851248930458513
0.8532880680314827,-0.11571813180976087,-0.37107278335820615,-2.783073024003107,0.7451895342992412,0.07825779953800713,-2.4557750970355516,0.1360794557095781,0.14166746307650324,0.4102008074496085,-0.9481688908203397,-0.15516838958396906,0.207092492478793,0.18442132445399206
0.6608299487612683,1.194023664963841,1.5084875201486327,-1.0732466686998987,0.15412199189186682,0.3213685706807184,-1.5816662444137668,0.09261757475626532,0.5425624874624738,0.48817133916581595,-0.5903689892085661,-0.6600465212234229,0.39468228762153257,-0.2450080370917381
-2.5409819523327655,0.26843216063311903,0.7470134197670433,-1.1036425467326134,-2.8394422314327157,1.6871784515187587,2.4774275087007633,-0.2652051382547656,-0.5153653274159075,0.9077391526230814,0.9679283333071583,-0.11850841131899692,-0.21852505074254236,-0.03629463081287693
-1.5985495796015987,-0.3447493424860195,2.0210387251362074,-0.7687422649468107,1.3957995780663421,1.7415304258885858,-2.2709770461265344,0.311260439467276,0.46164759927682303,0.9226338670909984,0.1341699673067647,-0.33564112923702255,0.7425638692227834,0.5638637711028138
0.07345176110852059,-0.8775650059747112,-2.0784371483489195,-1.3436847808393855,-0.6597683548784792,3.2740414717387405,-0.44888748297106407,-0.5355452942638744,-0.518374244071003,0.5553025558337594,0.6743958717402598,0.6673251104425357,-0.3159800747898053,-0.00489872313778672
0.14322533412210392,1.661796267807238,-2.3161246840790657,-2.5049722660999594,1.7139932103107856,0.8466427701028578,2.0743745131538875,0.13989194744366568,-0.3633258757759315,0.489616611730159,-0.3031083016916298,-0.0908423840189897,-0.9455688897256607,0.07597692738155919
-0.311619291438173,-0.5492569336752959,-1.8908076711164938,-1.2125103516445161,0.7360116034638722,1.679460670367593,-0.577709290731955,-0.492603537844871,-0.39249752165386786,0.7005676611495497,0.2609444255785698,0.7133179360258836,-0.36524965864693526,0.5382176286239055
-1.7467680027967625,0.2881295174179468,-2.3769689595271215,-0.22005967039293184,1.2266792502776913,1.218343939460304,-1.9949455247691934,-0.2166004989828949,-0.16155899724044467,1.0502620273696543,0.11875384580243686,0.8692870015992237,-0.0437221848812247,-0.4778347031212501
-1.0518656167623184,-1.1538310634605642,-2.4994027477877334,-1.9203837597948237,2.262491133515368,0.19277056725179365,2.033917380720706,-0.48944685141817573,0.2264387468002433,0.22064610998158712,-0.6100034827679586,0.2141097453561225,0.013598809729090028,0.7628026221300297
-1.9814121942310912,1.525803240413885,-2.531046653791286,-1.538423917804801,-0.9727307765897375,2.23743970816615,-2.148065122966497,-0.4465322558831546,-0.21507328706785767,0.8556032097084582,-0.9589520671586791,0.1596234501175969,-0.19807238848998118,-0.12529411790872097
2.228032506178223,-0.48990490887424776,-0.6464816254428336,-0.9106766357694753,-0.32760757632823845,0.7721108397336663,-2.0647347144542847,0.20614390070359717,0.18823920904886407,0.9168318202903839,0.026480183176291045,-0.49764595662149574,0.8593045965982273,0.11507785200629832
0.679662216157539,0.24161532687050125,0.23616639895615732,-1.576715808780325,-2.0140428919045643,2.6162612248237362,-2.1716751135241408,0.41023072182533576,0.5384717683991722,0.5682876139583755,0.5351190901608586,-0.6493581776889304,0.2997731883998544,-0.44957485687092247
-2.545003773560011,-0.7229312785889506,1.91240443293156,-0.5069677443036626,0.4021927347791463,2.8875557648732424,-1.7288449587225383,0.5994538555600647,0.15760568943837383,0.9211131937685093,0.8164179586606151,0.09598152327017662,0.5663682178699097,0.05896020483370468
-1.0740289317102982,-1.0557098235163564,2.0946897869761707,-2.7504666434159355,2.128025607892486,3.431127665056205,-2.840232804264036,0.2844233642771145,0.08369731274649929,0.23483895893324302,0.4920483313266308,0.19608053816911158,0.8073448927256764,-0.2600674650542716
1.0257103046902358,0.3773460549573753,2.2878419635453757,-0.6535285950133618,-0.5503153052696459,2.6540137762685414,-0.21870904509807065,-0.14776011851040358,0.194950208894186,1.1504481432353564,-0.7102892915186295,-0.14444215237781838,0.44334790650812883,0.5273217431182647
-1.589464013661395,0.6238939897970206,2.737900576715592,-1.449726932787698,-0.18979546152805726,3.367549748416098,-1.8618774945815169,0.18833247806824355,0.06667737754496719,1.075305333422474,0.6523003048416137,-0.05689761738720564,0.3205937905678163,0.6844608059549908
1.2269710175260653,0.36887051139431515,2.7298917263409304,-0.5934754781367761,2.2612857603171386,3.2753414708531814,2.5239642567903746,-0.19270400943408764,0.07239402051223941,1.1063780976067323,0.738115218046163,0.16702584764380013,-0.12369039449183501,-0.6418636751039809
-1.4661410050236305,-0.27282059692590854,2.368385673855282,-1.8290438476231161,-2.133210325900222,3.5720210101839376,0.7674579127833585,0.23292499391611596,0.5126752482388246,0.42351188470761153,0.1801445742678921,-0.10357980672420758,0.9039140074060754,0.3738430462318437
2.000125641192415,0.7887170663910434,-1.3313155341963725,-2.027480763741937,-1.7438954306367398,1.057635823588018,-2.75363575068599,0.40225117326154686,0.35443881794425286,0.5051335363377341,-0.1931469645344213,-0.05448216624689421,0.21460105159286863,-0.9558620885396695
0.5748591405039498,-1.4890106449178018,2.773073626415259,-2.2045351557955657,1.3132753598021236,0.3249278276164582,-0.41659017691803246,-0.18558003295716038,-0.09035023192084643,-0.031982056947236104,0.5067359077599598,0.24357187694548538,0.31378706209406293,-0.7651334133406531
-1.3044104671088845,-1.5521441239382698,1.8623427262820775,-1.2863533561670466,-1.4580960987125873,1.5862034549236101,-0.6807021843226226,0.37085783189017957,0.6376215610891801,0.2944912358884394,0.8802109652099004,-0.06590871515812786,0.1660073772321656,-0.4396888089262188
-0.5186475919391849,0.690448826313212,2.5732874440704223,-2.6796715497887797,-0.5448361187965167,2.11865491657958,-0.6043111173224052,-0.15547486435785146,0.3291231909400232,0.41657508760436424,0.03987289366040184,-0.32893282272676694,0.9412152903281512,0.06578090708283765
-0.9803210994016558,0.05911847563058403,1.8980121830041594,-2.0580404658733595,-2.616145593060211,3.4035465743830016,2.0077355341268546,0.2534130837780562,0.41582597281660266,0.4304817108159068,0.021046869786127687,0.3428670591076245,0.8344001951323038,0.4310168481791246
-2.4976092218237533,-0.8137261182285779,0.7753767911286853,-0.3100687637120232,2.776238448677303,2.1180347350154873,-0.8015271288133432,0.5074670624102326,0.2609883143607069,0.9672050642337355,0.12757442259708146,0.3589568545520576,0.5924259961931656,0.7098634955423814
-0.24512374996417563,0.46163907099546053,1.1528839884782252,-0.12959663834288548,-2.6897434509996345,3.422315056205465,2.6552076766628336,0.3921112724094296,0.07570430738786517,1.015087304668927,-0.09079293846802317,0.28946281882402586,0.11419734518510548,0.9460057532570634
-2.289805973527502,-1.510425994380818,1.4729742898566944,-1.918335105873211,2.331337387670193,2.9618051038959288,-0.8892622119411926,0.5357332635849618,-0.2413611497244771,0.44779945822965544,0.5325444810075951,0.7226154257077512,-0.04061243002870016,0.4388324883195406
-0.5797223430252552,0.4997275098903451,1.421172372221672,-0.11008089049633973,-0.6459759583879228,3.3845702190840834,0.830419336507084,0.2533236308756639,-0.19703459819063207,1.0683177338073908,-0.11446924143269632,0.11063788115808548,-0.1333599367821824,0.9781979243896012
-2.4771530086702516,0.22822986586539495,1.124022688712778,-2.843149950622022,-0.7666200713004496,2.5093121636887163,-1.2963342350900826,0.10516393484998537,-0.28746612112500564,0.14953609410947694,-0.17023735661791156,0.7310982792155837,0.6599245036443213,-0.03184647593618865
-1.7551886073176437,1.6144547630662696,-2.1129852262206423,-1.0575392663793104,1.8161694059685662,2.111179793661534,-0.16613340043818559,-0.5518034695142574,-0.5673943488178661,0.5158838156501031,0.4434781804509245,0.557903341119978,-0.6818961937462027,-0.16458598477860484
0.7703009934465701,0.21449682087505928,0.68909061827117,-2.5066498021277446,0.43367714530525303,2.4662447117056807,-2.2339354467832084,0.03768537380584937,0.4434233865552508,0.20376316362571675,-0.208568889353531,-0.45465753495116173,0.8645181233382242,0.048928097507686924
1.6553358095410329,-1.5377403646147068,0.6047487332426198,-0.3373709512410832,1.4290562504814281,1.5627718168683635,0.26493052665155137,-0.12068295623493652,-0.7926918448118461,0.44213519207795393,-0.3424983385119213,-0.6653797691226608,0.5345324756323547,0.3927336036719975
2.8282259444666304,1.6264636058316713,-1.429638789297475,-1.3205843579098626,-2.0303468206904345,1.1283883855404893,2.1940345438611044,-0.38891996417443375,0.6142778288909729,0.35755597929174104,0.04180945680649112,-0.21996168936370875,-0.15177338905530147,0.9627220070760178
-0.6205937491778633,-1.2185654876097185,-1.9952029023609419,-0.8014794542504129,-0.9831133796735263,2.402979588231473,-2.4429894747667644,-0.8221674745836001,0.13914090164171036,0.42612571108281205,0.02141111659331829,0.91898737704674,0.07382177803289075,-0.38672226468493137
-2.853665196834941,-0.8016025759759395,-1.7257158042700684,-1.6009540797707498,-0.9687453761624634,1.824007917319537,-2.6022622221845486,0.17669616046407025,0.6385208714239957,0.4557076527966231,-0.10132418933296723,0.8504510647265944,-0.5158630434632697,0.018754080895381785
-0.23622707372463347,-0.9272105021670565,0.3578314858264129,-0.2770035883711017,-2.213273581974459,2.31986968740144,1.0859094071849253,-0.5709712392837627,0.1718909366135606,0.9442184789116264,0.5905721237865668,-0.1314899613455474,-0.5063636019114974,0.6144353988262591
-0.338478778522298,0.32559491002370233,-2.2966146775005964,-3.008811662954663,0.3507793679559552,2.9020672490279416,0.6093716522944317,-0.3025481087046741,-0.10700067423213842,0.23797966212828975,0.08504486148220287,0.16574530530016504,-0.980917260113793,-0.055652440353287126
1.701424737151593,0.08589011378937128,0.12175250933931236,-2.69674977646828,-0.14650821059170172,1.6254013660970796,-2.123277942362537,-0.051844994194107694,0.25507163101198355,0.1870336043976408,-0.2347429549304564,-0.6286447190972968,0.5521745873777745,-0.49477751294473954
2.2758932608745,-0.04780363812558264,-0.5894277454212107,-0.3067770634106157,1.4322537759946372,2.319953057787316,2.8198091538480816,-0.010983575345885649,0.12991557466587203,1.1761463305051263,-0.4386749646129812,0.40604589610313346,0.10249270562804552,-0.7951014092382459
0.15822485352212246,-0.3796348130296556,0.6555013285417068,-1.7958580901910077,2.25341612107121,0.2413196748324224,0.7411910073465386,0.054399296342496156,0.33096114701917206,0.803196729665566,-0.48714451401081715,0.16800407429815606,0.6767045708150932,-0.5258666915924071
-2.883081571800169,0.7428253165765732,-0.3311381981662733,-1.0088415191793545,-2.6102737341978886,1.41272485776617,-0.4588139312031738,-0.7464209044224209,-0.014427790948567477,0.6376223427059676,-0.6041215107516308,0.0830920641937445,-0.1263089996585422,-0.7824186511839094
-1.1468019020817235,1.4560267133855191,0.12672374214110516,-0.20914308758821987,-1.9110091590598968,3.30772394924432,1.900677331959319,0.4333304593900573,-0.6812149741565285,0.30333315065367544,0.4760254507386176,0.7416774552512475,-0.1141649833753974,0.45856371333984036
-0.4549864964488881,0.5930091623489053,0.3665622401822439,-1.621579925948589,-2.7497299216481768,1.478660634456634,-1.9934040158944324,0.7069524765787464,-0.1706112858193335,0.4342645591867851,0.05849009125739435,-0.1795621795782108,0.33322440775538414,-0.9237412121183599
1.266520047054954,-1.4683946983276146,0.08378300086083401,-3.033850902934407,0.6769693874423828,2.7151827495434397,1.2867277711764191,0.06489842505889801,0.20120986730499318,0.5615941894168646,-0.5587143040143143,0.8028297468651011,0.15692176561665022,0.1366685169088714
-2.630724280710355,0.6209843129676385,-0.04937265553287684,-0.12231025740878598,1.1782275787891323,1.004055869244627,1.790219810211767,-0.3810825357244809,-0.35331637800524535,0.8537373086381067,-0.20211252936662727,0.1265230193927893,-0.8955096913965134,0.3757723295450003
0.3120021556509154,1.5017921664566103,-1.7042315997183368,-1.0031670371802508,1.4213264780076504,2.9389620521764788,2.1029881070179743,0.7615208145266343,-0.22453851935024088,0.5032064033060774,-0.14664462886477056,0.42631060201592536,-0.5860700502041084,0.6732581374834511
-2.173894913517908,1.6367813283361183,1.849325291722654,-0.18766461960849767,1.7727062256315658,2.6041008091114257,-1.4047360073848318,-0.39113709517843753,-0.7519812658708672,0.28608076783640135,0.3161878238394755,-0.16207966443135113,-0.5034251173410847,0.7876030685971146
-0.8204783045568464,0.038247598496725654,-0.7177141671438036,-0.9145490637967688,1.5123295047359524,2.1345582754119654,1.5423297680703478,0.0756470570844808,-0.4597500179643618,1.0125866144398858,-0.4719093411696064,0.27554602051631616,-0.5457698198831024,0.6352253678807661
-0.8738198971663067,-1.4876643028553893,-1.6204770530153052,-1.3981632677775198,2.4442558083259986,2.2328548825919357,-1.6056340949871841,-0.7680209573999898,0.020010985735225657,0.3661621767157796,0.6292338036596479,-0.39671473680370367,-0.27175992295245943,0.6105970702612746
-0.7774501670855956,1.110376269986006,-1.5088584341016338,-1.3464449436734252,-1.3447967043954379,0.15691021016165435,0.4167778466443064,0.0028951091482836283,-0.5074513583918521,0.5986343819896226,0.02307779001720467,-0.31434238184857644,-0.6025127541979656,-0.7332357489992337
0.04576808886422157,-0.37142050535801374,-0.8645997327403268,-0.09381064072749146,2.062727707294299,3.291125507429262,1.4012194641440687,-0.28967408188240634,-0.14338198644477906,1.06959410333367,-0.7936414866207803,-0.19473218559084937,0.07375952481052045,0.5716398333820814
2.234811850805086,0.02682027388621222,0.11159096668567159,-1.516452339699063,-2.8820786972992756,2.932767678421381,-1.1736485994414894,-0.4289681600121219,0.41555031416045285,0.6814975074543813,0.7481619399475035,-0.5677257812861373,-0.25313774411786144,0.23208281147028667
1.1154618350393215,-1.3299315932633884,2.6294543609878986,-1.2508718479768706,-2.7760428996833877,3.441072361914295,-0.9889488312942456,-0.43655802236218216,-0.3857673075596669,-0.02903958113430953,0.21958208012318225,-0.3052393909924003,-0.920793978124385,0.10368738652909026
-0.5186745541834146,0.8114129856875496,2.6320150661404544,-1.1560708706898841,-0.10666827722473693,2.2833472374241,-1.5239057165341439,0.2171964124500621,0.17906610231672038,1.0701378537819286,-0.03426086261544414,-0.26863877044579276,0.5505152777534545,0.7896786265730218
1.6847635063138173,-0.8014511911707849,-1.3775364591828305,-2.671610608880993,0.276145567595933,1.839271773582725,2.2872302260291995,0.2841645865281348,0.17973501764822525,0.30471948295621626,-0.016378561568623384,0.72642289080773,-0.39598122389954626,-0.5614627296183607
0.5824033950752234,-0.42906677545538807,2.231190392684392,-0.6410106333344712,-0.20996994196412233,2.794438137308163,-1.2418116944783493,-0.5412229234660395,-0.09143574766827472,0.9882897951704082,-0.13823482424065497,-0.5348899720786823,0.23626645518585224,0.7993509950520687
-2.167981360611931,-0.2649027592386519,-1.7728079705093027,-1.3625283501991077,-2.3317082301817513,1.0547752280060296,1.5312262804800203,-0.15865413597174727,0.5065480569570753,0.8373949851153928,-0.13387754669699228,-0.5550836864585694,-0.1509299859840158,-0.8069566548760989
1.746954730778389,1.0466665821376244,-1.951422815928516,-0.32008029631810464,2.5499250759637175,2.2198773949754513,-0.9699599379840351,0.011801915351107264,0.724785167365057,0.7861263625089434,-0.2801852329683594,0.00856950722471378,0.7437862835135804,0.6067987831476316
-2.107790402484145,0.06874609611148941,2.553358257702859,-3.0605260293230017,-2.852480206015014,0.046441845112057525,1.572393574408371,0.2586649021628119,0.09178735448771205,0.39727073059435164,0.8894640231061116,0.024434510451658426,-0.047508678325880176,0.4538718230763018
1.7222272443065552,-0.9122300566855278,-0.0698367260238455,-2.225376864381175,-2.0454326911249803,3.1959864613447784,-0.7383249927256283,-0.08793970708925543,0.25292808237888575,0.7575086167069882,0.6167347185453543,-0.5375103242409629,0.3086984124204166,0.4852074076560154
-0.6994704497528557,1.264006168090408,-0.3701273172456685,-1.0558147856254636,-2.8917772952526026,3.667851592454427,2.623952074607105,0.37190438052814645,-0.5007582846398997,0.04361281141151742,0.19492981686815944,0.9659357757728573,0.1702003617246743,0.001510114771634416
-1.5847660831118624,-0.1425370393784391,1.325827227678793,-2.0801779460953167,-0.30149715865583104,0.8804768665851898,1.7530507889678408,0.36976817916711985,-0.12694961643302408,0.43676786610801915,0.3805208674424253,0.6336078052259323,-0.5128126112289216,-0.4367702420749562
1.1621289770188725,0.3596384366901515,2.1479046789624134,-2.7073748908084396,-1.0250757409285245,1.5334375506654847,2.0313879745518517,-0.3253286685152962,0.015629142566960366,0.271651688029693,0.06509750667916611,0.17923678374223517,0.8525168192290791,0.48667398010313656
1.5053841135133008,-0.716708169974025,-2.4124897424353655,-0.9273318877671137,0.9864059634569617,1.1712485510532693,1.5014257651065264,0.32235621692370586,-0.5797581755833181,0.6131839258572729,-0.6544324956668927,0.5810280057273072,-0.4837427432098297,-0.010840828731182445
2.2400700037656924,-0.05447399178534629,2.2155543203272745,-0.27007073311967655,2.151518072134808,1.9359141254344678,2.4930050038287734,0.057759570906598945,-0.14805625340435344,1.1601157780407996,0.7630156155335478,-0.3169581594702262,0.4122420711209775,-0.3839286006474296
-2.3050963489864467,-1.340702841728666,1.480657947905042,-0.7339507354744996,-1.4023750752881055,2.397198377233323,-1.157830917334911,0.7629386360059928,0.2932038522846248,0.5459662257633078,0.6182283654406807,-0.1880744728969952,0.24878230683121708,-0.7214769882794592
-0.1040057903778453,-0.46723335160273427,0.573670489577871,-1.678052971392777,0.38790957816839056,3.016819344339837,-1.9430462051269273,0.30508742574888925,0.27022818173702245,0.9339361248844311,0.6591239656301684,0.009886806957112693,0.6480206495101001,0.38148012633512135
-1.4826315796752678,1.2320623250415577,2.418630665471864,-1.0601271198141862,2.2985027192727316,2.2709170507635137,-0.5812455084042858,0.35099273526009417,-0.46471808708903645,0.908014203184239,-0.8217423834564334,-0.2844872819239693,-0.06313861674637265,0.489714158188434
0.8928112598583424,-0.5398165680297067,2.4121606151134283,-2.0894872356029017,-1.2851146518964804,0.2148939407910051,-1.327404049567931,-0.4298005656346118,-0.019454407571142276,0.4109098782813782,0.9241510985113724,-0.10899967397096609,0.31535438765985896,-0.18605221949259587
-1.5488785839726333,-1.2021644659921118,1.4466843267402623,-2.85101666574448,0.8814839521332423,1.0713035661521177,-0.03904045724035843,0.20849343112222823,-0.03937106034966881,0.23034735587199212,-0.21588518363567707,0.8693053340822587,-0.206816631785461,-0.3936098378339118
1.7929404888295246,-1.6899639324521463,0.896001057641393,-1.5268650231629042,-1.295529278769602,3.5306342942888738,-1.5108390351322112,-0.36770333261223453,-0.5713626032383701,0.5149760577675909,0.6283129180942744,-0.15270644526147698,-0.58431457547606,0.49038769908888535
-0.4521603693870304,0.4523366280564223,-0.8981804923051337,-1.57743418745262,0.9483542851500277,3.097529154621167,2.176850831195511,0.20710590436988158,-0.6501498437629188,0.597774907431361,-0.1746501086688665,-0.08897265714548191,-0.8054369103517195,0.5593322708958438
2.8049276712775266,-1.5271203308264523,1.9998912554593153,-2.457445610107489,-0.5198097884510071,1.1335935641686057,0.12690729965235414,-0.1305045350665873,-0.29260108680753694,0.25899210212652235,0.2898356631566593,-0.10019400480945513,0.3270989699354282,0.8938471422060732
-2.8796718162541692,0.45766501543355753,-2.2375950795417374,-3.0194752488343055,-0.4747852931796679,1.1071186715803023,-0.759763824857179,0.12656561997966148,0.07224797869618554,0.2905686352354722,-0.17694910344420228,-0.19338540439101343,-0.5927035208833875,0.7615731327267605
1.2834422135623407,-0.16690407994395962,1.7182422916526527,-1.6464836860127379,-1.9928818053158517,2.627352480209508,0.12802419398347764,-0.620073460689356,0.008828474834989573,0.6588503527003551,0.09189565533143412,-0.5706288010811407,0.28581365840838,0.7643615064713315
-2.5166152363689456,-1.02651131949219,-1.5814516835220365,-0.6263465140667477,-2.820416388455862,3.348569818989722,2.4630590182273555,0.2435530531184242,0.6381067737607108,0.7137480471061548,0.5818070021267591,-0.38860279359708816,-0.38586022141081755,-0.6013321632987929
-0.1392184236581957,-0.5252778791247275,-1.0183084600037655,-0.6174010561465071,-2.8894508912889294,0.25121767063127576,-1.5125848602314615,-0.3227602834269855,-0.05713980699186742,0.9300837394411778,-0.24122205732770674,0.6779244214787343,-0.6592709992091259,-0.21815624543686984
0.35535939107101866,-0.484070526916327,-2.398242576220685,-0.7594172439846498,0.8331270396677568,1.9377217132609608,-2.4155447566936923,-0.41860392268102964,-0.48620953913920434,0.8365603163174851,0.63883067734179,0.6751272867430723,0.3631499982538522,-0.06496607691860276
1.0182761559124827,1.51647764960296,1.418012476816505,-0.47117424425438204,2.726057189295266,1.3069453091270231,-0.24880933644164704,0.32166921691428874,0.7366186215699767,0.4105172516420039,-0.8655419434295496,-0.24637456782545267,-0.41668891035803385,-0.12847983685253134
2.648163053014137,0.39460023081080076,2.279973575491233,-1.3588288162954056,2.017213798140339,1.9486551485816876,-2.1213997895487853,-0.029931786304171995,-0.415754202781284,0.9794784573065759,-0.6593826393581159,-0.2422487205287307,-0.25987814982147717,-0.6625658001743544
2.3365387060487968,0.8650214854063067,0.5368852209048671,-0.3120258469064505,1.8148343891025092,1.964160970104458,2.0534887393559518,-0.5704291046327539,0.40839553367380144,0.8001837191765419,0.12027721500900446,0.3094005448491248,0.24150287386417874,-0.9118558308812221
2.520626995927802,1.2225785627911145,2.856890909528849,-0.6029048673756705,1.2957462027299047,3.6384584047717943,1.7455902710810416,-0.6217051421976227,0.21846148555666342,0.7638043207675026,0.6186793284648999,0.37287078669078294,-0.3297233547763544,-0.6078534151239441
0.928465472318845,0.262900680338217,1.1830944335183342,-2.356604290695608,0.4586645691659368,3.642033446181417,2.358955181062233,-0.2064443236267216,0.5077036624198457,0.4097305253180147,-0.4629171273243886,0.8476473511334901,-0.07285395055746513,-0.2487850542823729
0.12348672424454499,0.1269880187815282,0.840661089547043,-2.0584094011313785,-2.265318673996436,2.167812906892866,-2.4976231181434203,0.3786255182516142,0.46947001016678785,0.44776991747332817,0.3186298416375934,-0.6657081180975224,0.1302802117939676,-0.6620685704154634
2.526819733853926,-0.4529142330261351,1.3922561408722598,-2.0306835614562173,1.884351789775351,3.2908410892516313,0.5586095590801063,-0.37868840350028277,-0.3524946405366657,0.5512980833833088,-0.4172782622394502,0.2764016080863828,0.7584938971460755,-0.4173344113559816
0.924275904858638,0.7178301902416782,2.521732973125674,-2.7067759225878323,1.3502520007002858,0.1547187887463517,1.1492404474327595,-0.14706973682458596,-0.0807711085314054,0.5682760071196832,0.7796336856255242,-0.40196520033753563,0.3116941501264199,-0.36529720876641575
0.4928145558306922,-1.7289744256462325,-2.605335755270311,-1.8124102877633466,0.2502413208416705,2.6545933744461796,2.8895606060882684,-0.03997666010053445,-0.3704505045357904,-0.23800164242848454,-0.3670979448817956,-0.6506189209401809,-0.5606187856140556,-0.35726838062557054
-1.782969829302995,1.0081052921676101,1.0591841801532293,-0.632486768347365,2.253275855509752,3.6820598633803208,-1.7875522792049081,0.09204536350271836,-0.7319185801596106,0.47267587220117774,0.2027689427376942,0.5164674801256846,-0.637456020779758,0.5345988396969257
2.387455397209085,1.6716512083453527,1.7712867044237126,-2.261323239153584,0.430311650762214,1.2770068230359233,-0.24855605027339145,-0.27780689745227105,-0.25969757024575635,0.4627381256262222,0.2064423067371449,-0.5973042913880773,-0.03337466649785989,-0.7742708112247223
2.600498808656597,-0.9603098759174384,-1.6139805722884673,-1.3281348622311802,2.8208713470554705,2.7728280299894354,1.1758552733385161,0.6504816671548276,0.27632418135538356,0.5765951425762935,-0.5598630546876148,-0.14467286777750404,-0.5363719305412769,-0.6147587115708963
-2.4870371797867064,1.4319745066543041,1.825410021225713,-0.7816703178141551,-0.07026292876150064,0.9770334522294785,-0.06766439049180395,-0.19121119969698086,-0.6393753640997081,0.5011821031620306,-0.2932455686692497,0.7559790766938194,-0.011081633796553358,0.5851323520789179
1.9234351860717491,0.2416867858543741,-0.4953489882092881,-2.291820888322862,-2.3262107561718697,1.6018316361139588,-2.0023244231726633,0.14673310383966506,0.539310455492472,0.34213900765473754,0.5273373978962347,-0.5159673632646178,0.050348950620436816,-0.6731700617208145
-1.7705576245076844,1.5980425222365335,-2.4353173567695383,-2.0534426145946254,1.5961983658258991,1.7137578685708375,2.3591338159494133,-0.455925080552544,-0.0864413372989494,0.688252988453559,0.3132170139408231,-0.7933135194105986,-0.37229120213199496,0.3659891021785716
-1.3930110566647882,-1.5172444628934585,2.6364040075674686,-0.3973642270798847,-0.3427625005885644,2.5734749708610676,-2.3876603990680096,-0.06154231244067727,0.8453506830640822,0.20561031985020725,0.46026340680937905,-0.7838088013354112,0.41601719944326554,-0.027037919090618007
0.3390625865161878,-1.1124861081571997,-1.9731535036495902,-3.0540303993213422,0.4175094774279837,3.1442041954204965,-2.2023136961292913,0.15682784255594284,-0.21081385329803318,0.13214885254115838,0.10052845484626134,0.7754788891562402,0.3676471466701667,0.5033508694583839
-0.9395603210701686,1.3841597580291465,2.351570428749232,-0.07510818990767554,1.7995480100942163,3.119020759436671,-1.9587759562481726,0.5529653190522845,-0.5889579135020655,0.4646819930238971,-0.19390114079257267,0.24913880956943996,-0.5599580316798594,0.7660151460140183
1.1118248472710612,1.2482958828953308,1.3825303434981664,-0.8524690418548584,2.8199749362330517,0.8799035718011669,2.307736699529498,0.09618429317622619,0.7243341416551805,0.564101235703913,0.008923286160999133,-0.46998755437986245,0.24404543823851935,-0.8482180720587675
0.8178580715846602,-0.4059899376321132,-0.25850783635034347,-3.0394042280177374,-0.27208528253901365,2.0639263370781102,-0.8315848199090685,0.1911925328883744,0.1218244071306984,0.22033111265464878,-0.09661781159904942,0.33571967074381304,0.8984573905924903,-0.26595416606477207
0.6466107795497562,-0.2965756370296253,-1.2651103715096326,-2.3327046394620137,-0.478061916984839,1.3366443162161346,-2.113394448968351,0.2809306957246326,-0.2694806055128776,0.34007190373371127,-0.42538369886230615,0.26878566036762774,0.8636697142427174,-0.029624351855584513
0.6849495167603052,0.6785439245280016,-0.5175048340465871,-1.7728388617707862,-2.152588200331443,2.40754508861331,-0.8049260846876063,0.6567258131559789,0.13988713707319972,0.23104632308508577,0.4653654319088192,-0.2878571045984663,0.6829309475872083,-0.4839200584230236
-1.6906349069972546,0.6458468871163423,-1.8742934450482431,-1.6638546246800077,-0.20216799584503864,2.325115850771422,1.2958358556565241,-0.5809668547967226,0.01725507248820679,0.7098167463769723,0.3989825125775243,-0.2606523949924927,-0.8024414370096559,-0.35911143648160404
-0.19141957781696606,1.12558876995252,-2.3408800878069056,-1.802452692556041,0.9361488652410235,2.149479080113373,0.8105638316381625,-0.027129276951292844,-0.45582348796211497,0.796570008362947,0.47378046927782147,0.3032823086181049,-0.7912251369804789,0.23982220668733184
-0.7317988572306144,0.8239602632397403,-2.3570688194896685,-1.1610807529618539,1.6039745599905388,1.7339356942980901,2.291434182824721,-0.10079579219182283,-0.4674902207724102,0.9434912179888664,-0.06445613042936926,-0.24996264105078145,-0.7910048932724555,0.554684905282288
-0.2861435966442145,-0.669530621682519,2.4670620397157514,-0.9814801180475206,-2.5444801610242243,0.021009098954857246,-2.268914495156505,-0.41652069684898496,0.31163129537954926,0.714360683858688,0.6266002260679102,0.24952980479709208,0.6662360126451252,-0.31817700838415824
0.5331793397499123,1.3113617072794477,-2.614983020557039,-1.1971280318770967,-0.9590494416408959,3.344356476160667,0.15166955297300122,0.5967985145790843,-0.009667686340098132,0.8411809489232107,0.8527822165545637,0.05346491594960989,0.33786741475435406,-0.39465124342638913
-1.9831673519586208,-0.047380501866063574,1.2720101929370453,-2.1698979217777823,-1.9269801949680483,0.9598224414331994,0.9593407927605253,0.2847167631998948,-0.4037647490813471,0.546693416523122,0.7164976820910998,0.4015794204388438,-0.2101688857374133,-0.5302773614873418
-2.734242534022762,-1.3091575483944007,2.2122707654661036,-2.088307597457325,1.576357042201487,3.5424365170917183,-0.27759648511236357,0.3879214589250458,-0.3598198168414918,0.17458372138371325,0.587071749612963,0.7775032442863606,-0.18599323513861826,0.12744403639726615
-0.30157412585796406,1.3080803026471601,-1.838623462198629,-2.7222657388955045,0.6032943673633628,3.39487654890028,2.350366625851272,-0.19725903540851794,-0.356947975999525,0.4926012916662396,0.6040291432137194,-0.23314256855493073,-0.6394584077827654,0.4145917046831007
-2.2142793096415203,-0.013564762978215628,-0.9455968044114917,-0.8655987453397089,-1.822896724996541,1.547389085676028,-1.276071318119845,-0.3611640870771421,0.11995790058530365,1.0385385303901833,-0.5290648643726427,0.3460847018715782,-0.5467261991091321,-0.5490047464498817
0.23630698339753575,-1.2789706272445525,1.8688913922375048,-2.821985585515947,-1.01627921687618,0.5878071659102393,0.301969783188869,-0.03366660535183496,0.22510424751280889,0.3773687427115695,0.9414534298385813,0.270645689851652,-0.1864062832763177,-0.07529307780269484
-1.8750766055632513,0.6442583826101136,-2.23290980386486,-2.715237491369611,0.12585500630495572,1.4021987542624121,-2.8337420345875297,-0.13462312024632983,0.22420062401370078,0.3239507845955557,0.17101813481713887,0.8151379773667313,-0.37774109121183996,0.404492946079692
-0.2985241001918526,-0.9024095271494617,-2.4982343575289714,-2.3616308631241107,-1.3840725409534314,2.074717964842821,-0.4200147793923237,-0.3300450924599911,-0.16698380366303434,0.0002496588952072415,-0.2920804190718915,0.9410197908575644,-0.1707701425145846,-0.002887981080663571
-1.298308361290983,-1.3384327648595238,0.42514758508562434,-1.028282323622074,0.8168110249267553,2.7281768802425184,2.4591895826795,0.012753160230722912,0.5813848700022106,0.9159848986734531,-0.5493470747069216,0.3364932522686968,-0.08756014439214668,0.7598179412218486
0.4315607418427372,-1.6699989723086963,-2.0522108740379537,-0.5241551305250476,1.5223316020448583,2.841197602464322,-0.45488487243702647,-0.6214945591922933,-0.5183575149019494,0.08519093965775636,0.20484406895286955,-0.1640925635398422,-0.7045078789584043,0.6593793949550478
2.363304822728327,1.7542241522879314,-1.0237819673643789,-1.649999501344383,1.3085709191540293,2.8142042766983835,2.3295233980075474,0.15444197058661008,0.604302583939701,-0.0027477927410675673,-0.22143260444868618,0.894114917623149,-0.23713171942653039,0.30869833723659346
-1.763874108095536,0.3844599990562334,-2.650548948385246,-0.8720998849533128,-1.6181051458873073,3.0803180539445285,-0.7507871107819364,-0.2531120321701303,0.09060714309269192,1.099471079754543,-0.6141826705885317,0.2402252407965253,-0.11048012222254334,-0.7435493416221154
1.2361340953073383,1.0437990114419753,-1.3816673958112728,-0.27968173306607413,0.16354852173109657,1.944529089283032,2.603121421548868,0.42665683105734514,0.6154064219540637,0.6953495598911992,-0.23897911949019,0.7018737630581771,-0.35658431284296377,0.568427505503172
-0.2374926127325141,-1.732730822110982,1.5913698180498597,-0.21561570007062514,-2.262866403636749,0.8563914655773305,2.1561652540572616,-0.7115106782259502,0.1713612331342432,0.32152280306130177,-0.5304909751229692,-0.09189330033063428,-0.3938356027721558,0.7450023252692015
-0.32199958415689833,-1.1699903185307075,2.5370996380652815,-2.208655065459201,-2.3001508192946254,1.062885973995864,0.994018112022228,-0.20123636591245814,0.4633349985296442,0.0792809486738529,0.6313632135708654,-0.3859632125392018,0.12710084649086878,0.6604984980582411
-1.1658008677103204,1.666803366120789,1.4620441717239774,-2.1038333025947575,-1.4968239392128235,1.6626464399570247,-0.34787300219836625,0.5268741116545838,0.09466998347177649,0.1649302427647754,-0.10289467412024182,0.5096169451513934,0.8535749585402983,0.033362335127767095
0.2992540715316432,-1.488976364517515,-0.06543946954115754,-1.5127702330259483,0.4895154240670596,0.44776539135674437,-1.1452204581501837,-0.2692320290921384,-0.04937350322406007,0.7689082575652079,0.09467491885693345,0.21360413736185674,0.949699698707115,0.20851957825812154
-2.8559318091327546,-1.2888745959710715,-1.7449700735420792,-1.8816762496776536,-0.05409300320455923,1.1123602669882544,-2.8076727696194843,0.023658656558605586,0.4800372580951304,0.28789174811226736,0.6285048807170732,0.736198948705298,-0.15111488847836949,-0.20039214884870377
0.8672321051275427,0.6325605298006645,0.690848062796797,-1.5329642113840567,0.09490948439628388,2.6949704234265797,-1.8951318135473378,0.12546008472924158,0.7314244141693742,0.42388908770917416,0.000406112725635871,-0.35719536702806304,0.8562998448934026,0.3730440731088955
0.5658209877776348,-1.6979878276647544,2.8558205527974496,-0.16815573348381463,2.6394176171013446,1.895264019684469,-0.802485233311804,-0.6810051818004337,-0.46538546835209144,0.1965509590093171,-0.45442872559876524,-0.1996767458452079,0.43393399684453726,-0.7518809858627056
2.759637214304735,0.6616839553825016,2.711053611535512,-1.044229815394225,-2.6176822956410475,2.946485268038745,0.49260687888816124,-0.05824667958967942,-0.17253345718832985,1.0920349294633984,-0.947389486087486,-0.21522807606378114,-0.03373118855983155,0.23450425122609783
-0.8713819970556771,-0.452015133157617,0.7647861096993664,-0.8832172998402426,1.1996710630997405,3.686513837112399,2.298653575942209,0.10266280916364737,0.09878943708515293,1.0945593935811202,-0.9107205797187605,-0.07125427813659467,-0.1645700208787636,0.37205854613477135
0.687768838353009,0.5107965456242543,-0.7807903634527409,-1.8849692246350034,2.144481075590067,1.045916800997607,0.5113798371229796,0.6099523510817509,0.13522652740665042,0.4098268227565865,-0.8225222779872966,0.5498743922271533,-0.05252937556322246,-0.13541019049666886
-2.4995811325085677,-1.3427205213755067,2.846421217699143,-1.9231030051348477,-2.5537606835572313,1.6126981470413333,1.0540075038192342,0.4755746180431732,0.07370902086277047,-0.12853303449852446,0.7159078868776341,0.00032056843823549674,0.6977960134432671,-0.023590641469877077
0.020192712894847364,0.29575048692470185,-1.095137465041274,-1.7364382899726543,0.8347019571019536,2.3142310951463285,1.4780056119799672,0.3762247458454139,-0.5265379253599272,0.5339026273804448,-0.187032275751313,0.4623906309459147,-0.8261466235040553,0.26209843325279913
2.2313922473004157,-1.1287394232421277,2.3014148349887447,-0.8720460819906384,0.6024010296189148,3.46556867851046,-0.38862751358644587,0.23543727340749315,-0.760617664189293,0.5061634651675098,-0.7418120811236216,-0.6567259492583749,0.05116076638986328,-0.12573161834689342
-1.4272871150091808,0.6300760100321185,-2.044510251952804,-2.8432409393927864,1.0398729293594826,2.431820273884322,-2.1437746910738835,-0.30698386323100435,0.16555392616215014,0.2869527635775309,0.05109053221200107,0.7512214352109803,-0.6538243902277967,-0.07463095564910152
-2.4986881188165087,1.192601479766759,0.7924713978154201,-1.3529444406399063,2.4201325807867504,3.1649764545983654,-1.6545527006573766,-0.2397868309334062,-0.6225077871299272,0.09116579289078705,0.13493655389976453,0.31905578582306043,-0.8284095309172393,0.4401513160720568
-1.7809912184245722,-0.6314989991351054,2.00177918440439,-0.7801699328540246,2.3864110007944235,0.5602275679272363,0.7825954651298486,0.24819644090219806,0.4941877010846921,0.7879252929050167,-0.5050425406278334,0.4352059393450789,0.6588238828020155,-0.348538253230009
-2.874602788120641,0.08200806522005921,0.4056590398088442,-1.4277236280544991,2.0218304967676324,3.080155103511141,-2.449537074157166,-0.5214564841500843,-0.3048961273401335,0.7198555467066343,0.7206521293034102,0.5486447665683807,-0.3886025608945156,-0.16922611593312353
2.525408732884262,0.7161112228139332,2.6084469104489387,-3.061593227598242,-2.8820941289928825,1.620592868002845,-0.8984101190132392,0.12777967359256245,-0.30607848868100923,0.38522148836211634,-0.20326997903030003,-0.11687199576592497,-0.49556845039506625,0.8363218060075576
0.3846305649639734,1.7521669039911574,2.0157256354668545,-0.19084683969831806,2.2324909941279967,1.4020559048036274,-1.1737551721118884,0.7461598664250912,0.2724306666292774,0.2809770183422534,-0.5992202315005356,-0.1920601907866014,-0.4959603328752625,0.5983906295136283
-1.042203220865336,-0.6828480361568634,2.7798821930413227,-1.9953580611450417,0.837499510134287,0.7695125520711279,-2.3080387463131435,-0.17123362375230436,0.3941612675662063,0.18632711676758526,-0.7057604761392953,-0.3621366252508773,0.476107813734313,-0.37957945765369366
0.6682494078898245,0.3183110471250168,1.7354768563865188,-0.1292185069411942,-0.6633331671097409,1.168087343722336,-2.3881662648450215,0.1151816430484487,0.3079342445840324,1.0117209342283395,0.2216075201591683,-0.6621843416757045,0.6006096514923317,0.3894483934781043
-0.5434585961162455,0.09815132071303334,0.11963755134428355,-0.6487690063015878,0.17627595379990302,3.042512073439136,0.17834941678021776,0.2964271352464353,-0.15877077713156407,1.1132482453958539,0.3732522195785059,0.40942946049273743,0.0040577706066834696,0.832486535601656
-1.0828863954158794,0.17346361241014852,2.6850160045824327,-2.694129331280161,-2.729182786763843,0.11947004095145385,0.6243010539896257,0.04151627518066787,0.3412263233152189,0.5159221314788988,0.842265201282662,0.24446844439674215,-0.05992273480346581,0.47669044070149547
0.6182847029137837,1.4015673056222617,1.795466100179723,-1.689032041566897,-0.8824360522609576,1.9723318775462186,1.2618750912653813,-0.11249674008483941,0.6402027359570398,0.46529389832807966,-0.32184323355026234,0.5699826617553598,0.731032472938008,-0.19268684912657258
-2.351239006052249,0.2941711919472203,0.7261128813159168,-1.621956308760336,2.2145547166810613,1.6685065678441768,0.8357667538565248,-0.029701521436372502,-0.6521688906698563,0.6381053418587178,-0.6802459377219668,0.11624568159924273,-0.3750410679697257,0.6189479808985695
0.2903503958586966,-0.8605324337777333,0.6870055548034602,-2.8707857832054504,1.5755968018282958,0.7808324917208047,-1.2415245675816475,0.006968330197795233,0.2864492453309643,0.4081987071470696,-0.7052380750023817,0.1504962007423844,0.6912941455062274,-0.04585363145767915
0.34901612813663085,1.144561175330625,0.29101002510589424,-0.26949666646938875,0.3085938523109193,3.153182683413299,-0.11402997276772942,0.7386555735875502,0.2568973611645657,0.6253696691519133,-0.0377660362600003,0.5982839855727988,0.23265156589689134,0.7658350005047165
-1.9675576818252904,1.1828167586215916,-0.12286154100871993,-0.8016631606489493,2.5563719074140576,0.8952007136992364,-0.8614691579883562,-0.2485187363556179,-0.7192778213462795,0.3952560705278442,0.08896180519398339,0.31686958875555366,0.060760685869229066,0.9423309397399697
-2.05562233316364,-1.6064925470782552,-0.4984725555395717,-2.555023290086257,-2.745050475932801,2.1741479713512546,-2.4548607657958197,-0.22529376010973834,0.07893749764948499,0.7374576981631997,-0.7457543660811705,0.34993444786519917,0.19269515545257632,-0.5331649695293721
0.8231095591286706,-1.1888541845232545,-0.4432866341745445,-0.9728001952869865,-1.1976511380014936,2.674428512784608,1.294922348737003,-0.19887714553928837,-0.46635471938940104,0.9844744336820984,5.6890750496307874e-05,0.24758955000943994,-0.3251869860860229,0.912662498172163
0.6462358227782521,0.15408639954723924,2.733204869354473,-1.3539029450525784,-2.786436268058647,1.3526315543576848,1.9166993599510431,-0.3946296046018463,-0.011453441410279833,0.9960647229470193,-0.5975762463884935,0.3410144022307747,0.06451396577073079,0.7228068590183395
-2.0539929161889603,0.8586031043448266,-0.11696769657331085,-0.47407713652432326,1.253812611101234,2.673328698336875,2.101619694893905,-0.4088472753523142,-0.6581068665631882,0.6926200779331968,-0.2595432997896008,-0.31955718124038,-0.6152749727594894,0.6722776147900784
0.05177956817217888,-1.235968966675343,2.1418268108140013,-2.364652487289944,0.4429062870630389,2.6650440452121527,2.8174850978657964,-0.13336696610447918,0.4415223236991605,0.08247606103132818,-0.1345926820959297,0.9010003544410159,-0.04163219691340375,0.4103046811864949
-1.996360505448796,1.4825566151644902,0.9320625137431877,-0.5704971714083209,2.1629745640377505,0.4002588081183146,1.7460380815250516,-0.12499329588599786,-0.6719221092908646,0.3971279790007345,-0.8601011355756094,0.42239327622254347,0.13873217411093902,0.25012664921991934
-2.0915731472728316,-0.5277448212206037,-2.0172004501827807,-1.4031190765140378,1.3553501125219776,0.49592213489531983,1.8869938477674189,-0.2278784385882804,0.4373958796804045,0.6706331094611048,-0.3686983729317458,-0.25317412304447584,-0.5870608490845,0.6747769503253126
-2.524930067050895,0.597702084664828,2.0796024094665833,-1.5156805637003363,-2.797695773085217,1.9989196523055974,-0.18425728177150047,0.25727059554680226,-0.4534432911411346,0.8823236670972956,0.7620818483698523,0.38157518703788357,0.1284911742324923,-0.5070716430313844
0.9276835085208415,-1.1743403356571898,0.9561900016246678,-1.5078282147301327,1.6163086454625026,3.658596564547882,2.6270458812049102,-0.4136017867749806,0.019072571787200003,0.863946900138598,-0.7454587153462038,0.25496419159699724,-0.10766784782022817,-0.6063762852086457
-0.7434813000008687,-1.3751086076336287,-0.8541570877321774,-0.6580793866676586,1.212722054598228,0.6707600020875634,-1.0878665772955713,-0.4894642216121735,0.28481378444682964,0.7221710416655658,0.631987754704159,0.39287523956722425,0.5498964968122686,0.37928138213282425
2.491665358107577,0.6989206425478809,1.2845529401892617,-0.5481790145748802,2.0173227504031055,0.8416519281799122,2.7364429990215604,-0.43266108065935616,0.09391210572739964,0.9271784546490983,0.6517788221423996,-0.22258949774491552,0.5829102858014239,-0.43110773735486807
2.158609805678237,-0.0629780237101798,1.3325441233281077,-2.6279302486941143,0.32740736456156805,2.9437694327474864,0.6515573562400601,-0.43820159363700456,-0.13415115019364582,0.2871933451470739,-0.16300718934813893,-0.09000341171706516,0.9814396019665169,-0.045873192519289355
1.760281103551438,1.4870599532865505,2.3472775269674924,-0.16226285703487608,-2.2374402158843085,1.8954843883205992,-2.84591590581939,-0.22215951326287992,0.8024563826728872,0.3876685577714313,0.16807383214991925,-0.892700164958405,0.3669442804655376,0.20047318390075133
1.9004315830805196,0.8099957190464773,-0.9541115663383479,-1.0814222330722583,1.5046934047058476,2.5107521090278273,1.6437951295327378,0.1812346283317776,0.7558418643462333,0.5640724245345138,-0.5330201909915473,0.8352466842647497,-0.1016794607070527,-0.08895920239299415
-1.6318169148357116,-0.8664172186850793,-2.5421821910064284,-1.2279044271074402,0.8434440434346313,3.1896145872681325,-0.5736756488618373,-0.17373498320386466,0.7697010822528725,0.3920142980108024,0.47741116820933516,-0.40295481237589026,-0.720710283740278,-0.30047076823397656
-2.5867648462117385,-0.8487039557717557,-1.064310757797329,-2.9364213301664623,1.141139932871957,2.048333859223688,-0.47522311020044805,-0.3014523187052329,0.03708934771865266,0.34085030682204875,0.2979698844682202,0.05442799786538316,-0.6742515951522753,0.6735252982872824
0.40459634080637974,-0.7638607615065225,0.39877887547404445,-0.4956117966398681,-1.7640753960653306,0.9168384028928465,0.08220841373174448,-0.2883935325621677,-0.1873082716028513,0.9913991985041984,0.3315664908365581,0.8119249476851605,-0.19538786933913965,0.4389363530124731
-1.11360576330363,-0.8022724031491212,2.062417149965247,-0.6448270777853602,1.8785053613476195,1.8383655243511265,-0.2776167587542755,-0.10830709473962569,0.7299165844611638,0.7246514871212005,-0.5750222006684983,0.233689480942069,0.7678252015083764,0.15869201354826934
2.341072772360588,1.163523857070274,2.613924737315696,-1.4396536932103725,0.5845018287127455,2.7606729988645182,-1.2083513095587666,-0.4084279755595804,-0.026223299316161193,0.9794677271318442,-0.8500925179851291,-0.32273173232445557,0.0641412219783084,-0.4111846829098662
0.5333734123348641,1.5633309497795933,-2.502941985854033,-0.6073350980314305,0.30603597043494357,2.800615375662929,0.8086125423066006,0.7733444480704698,0.2820490468167611,0.565356160803577,0.773776031198323,0.3079288580731849,0.334632327778954,0.4409894297077359
-1.9055253303872026,0.3471879469716628,-2.607942804882161,-1.8040394483193425,-1.3699156533517103,3.5533508955868016,-2.2800289854421547,-0.2690746548233777,0.3827149203476104,0.7688797518522561,-0.6915693952179569,0.6577387320647858,0.17629209462914353,-0.24089962497053743
0.5471827470547423,0.5613245990455531,2.3605254728325966,-1.2955747220543976,1.8570944908835245,1.9710019141499409,1.4226756050779419,-0.23583405730586326,0.2525569908205829,1.0273833956082388,-0.10831152439521324,0.0830262170375688,0.3453751913439881,-0.928488684999294
1.0112798238133314,1.26301963586128,-0.12584729427801378,-2.225935881942306,0.35625918991719274,1.9459669621153088,1.4012582141365635,0.12428124121307955,0.1253068342198022,-0.13050230128054074,0.45971884968666515,0.7340560827639696,-0.07296544346997624,-0.49446566175945356
0.18404628321072147,-0.7464964291371028,1.1539476306458076,-1.311106214783086,-2.0818327492547106,0.46246913664431233,-1.5473355216627451,-0.2340796460289551,0.24762755706705478,0.8971459484130031,0.6382280553442955,0.5904280823363947,0.40512641898812096,-0.2827228565183
-0.7828973804210846,0.8178155661557933,2.5852449057247253,-1.8436029657151454,2.714356320503702,0.7979064986060754,-2.1767820054979863,0.14686879642102535,0.1556679818710598,0.9476077977382703,-0.6821513888716808,-0.39211055792339405,-0.40518032164653806,0.46556170372556194
1.9547086595267626,-0.4342208633920075,1.7365509893738333,-0.82546046531268,-1.4070781767159315,1.3425873098691554,-0.589926291885654,-0.2707760200429067,-0.35178432748761856,0.9605982773553152,0.08186948132889979,-0.3631764026021704,0.537774293548903,0.7564384296278581
-0.33650667263445966,-1.0040254663446109,-2.0017779613821993,-1.7870663420904604,-1.1875054437115142,2.236846694785503,1.3862956941232238,-0.5369117728285147,-0.3823279615439704,0.24587123507404723,0.1067083987869903,0.3267891010006848,-0.9384031123361463,0.034954253722746964
-0.27348458647472285,0.5367895864661567,2.638190679053061,-1.2426800831700244,-1.0243396740055146,2.3366982088673858,-0.5832274327897364,-0.04672288492598732,0.3023967706034045,1.05334283104659,0.045313546888021194,-0.13281307258688507,0.6638360018576048,0.7345945363642228
-1.3088305881849653,-0.39588678984258685,-1.8365024832911974,-2.425543393091478,2.209267436460713,0.4695735312951324,-0.5214105213035132,-0.4346904912080652,-0.037094560187466666,0.4873918986196819,0.2786180723956272,0.14107326056398187,0.03371544515168575,0.9493858929047839
-1.0985669812618617,-1.277336344669013,-2.78549141589397,-0.8869565790216831,-1.4093596156314994,3.4620280758612343,2.3826005966646977,-0.550975365817213,0.5541544903716875,0.23442973644164175,0.5697148788688774,-0.46349879037081765,-0.6757046867437811,0.06337984247926917
2.1253182858326833,-0.26501724192588494,1.848318788262747,-1.4880169173507614,-2.2802026147840153,0.35357400157323104,0.022940005798847363,-0.2555984171599779,-0.3327210686830926,0.8127400927106967,0.1379318395314205,0.20432518555518164,0.5656107676867462,0.7869628235616517
0.09072738298781369,-0.09228370610453762,-1.7409656606548303,-0.4552050495171356,2.352925583949243,1.9796655303039128,2.154383033537344,-0.04649295198128091,-0.2012918914596729,1.1580451088215962,-0.8328474153487435,0.3144585817752397,-0.22147158842244102,0.3980343183903401
-1.8874720123980704,-0.494354539821938,0.5029115523671397,-1.265747241362913,2.419191084684338,1.3106155367082246,-1.743672097395017,0.2697517470657821,-0.10849222949297745,1.0447600010320746,0.3400022528040872,0.13385175882428033,0.6172958826412975,0.6967266092391573
-1.1912057406491794,-0.05948051888664718,0.2834018293868299,-0.2244690744155884,0.846821930571434,2.49552750800873,1.668387564768571,0.048394146650780415,-0.04618837757863073,1.1826534379286475,-0.38553927974959634,0.3089520237807286,-0.21888083466673297,0.8414269374030929
-2.841167531506952,0.7666660927132098,2.256139050167795,-1.759715345316189,-0.3311133034451017,2.2136781763526794,-1.7549710902035733,0.21771502732932935,-0.4271582402577486,0.7851893105273959,0.4516242252721622,0.5248982665813735,0.7103162757130184,0.1263651745710605
-0.642370853710589,-1.0850789752863634,2.7434656007815508,-2.5913562320822687,-1.4734009117727611,0.04761025384502503,-2.75413269957369,-0.0494496568875536,0.28504040754141097,0.18004084142631532,0.06621462160427177,0.25812054886634783,-0.11218861759593515,-0.9572894652197164
0.9407030667835676,1.0413339364732743,1.1376313038097314,-2.3531494314786032,-2.509388104404693,1.816111369478585,-0.5825798256074055,-0.2613316263036017,0.4370235821627002,0.13623412356001618,0.4281679761362026,-0.7017730639466071,0.5159816708253124,0.24072736924317062
-1.752496153532055,-0.9040809694425211,-0.2642415415397199,-1.80530493639718,-1.9556560905753546,0.2069880934110261,0.035256252114510556,-0.1861655681649004,0.10061756235840363,0.8428383129348026,-0.16807442175916776,0.0991060098070799,-0.8777479514686907,-0.43759287158608584
2.050460121955662,-0.7533249958498658,-1.77788715692909,-1.6362621201180652,0.1181559520778972,1.2682394352522184,-1.6884667290893338,0.5568861597315775,0.02777194362630578,0.4476858793266041,-0.4003242330888821,0.10579596645655504,0.8739204404815737,0.25457962524878786
-1.6362758683996734,-1.1500647304531948,-1.1758838648686611,-1.6161917641178256,-2.3352487249231313,1.4430399785143977,0.8612942407641708,-0.5125631311767919,0.3991219043876252,0.6411539421715802,0.14774942102703667,-0.10468875133904892,-0.8162505839381959,-0.5485848686846907
0.6031250627608062,-1.4689415148308944,-0.821193579404381,-1.1152581619120894,0.33486023894670325,3.291114018675244,0.5842293274672916,-0.3481874249539765,-0.6513137803817719,0.6707137110297947,-0.1929342691336779,-0.12863367692923033,-0.43904655358678,0.8680252696420127
-0.8628920254356269,-0.8966116240988049,-1.979817860366766,-0.9427434193944246,-1.2048521205223044,0.48377792271241277,-0.5039232928166069,-0.5642358104051395,0.26924588713823133,0.4826024675130763,-0.46250337433038147,0.42420762351973346,-0.7642039485694337,0.14876439719111653
-1.6854621238871552,-0.5921075549361483,-0.06444017093771981,-1.7815214757475668,-2.544993519521073,3.384066419426197,-0.16339724323861393,-0.010355455775744322,-0.33221309378365516,0.8078500401774658,0.42735476048228477,0.3754793601437597,0.5183019002205029,-0.6385501538853285
-2.1011491355529985,-1.3762599038656866,0.902707787906798,-1.0421528545349696,-0.1943637465017405,3.3758164268872353,1.1087013644653614,0.6092208920739668,0.4074830136279321,0.6921902005231164,0.6043428683750643,0.25421169520726317,0.407268857494265,0.6358287420204944
0.041653444761341696,-1.4767944045840875,-0.22967836701015676,-2.4549972974042045,1.039788216446905,1.632306108223281,-0.30594725491337904,0.073711852926053,-0.005115796823475349,0.7469406880188638,-0.3418447728627615,0.5962573571885883,0.4845651356606353,0.5411247033421009
2.5119912089888694,0.2540692811894738,1.8971553351391202,-0.4113918641768537,0.25051213379383785,0.47914881937739573,1.0926798027682767,-0.1701736515372957,-0.15862992019221575,0.9432414301438161,0.05739147308190989,-0.5482694652509663,0.814648934004072,-0.1801497338797254
-0.6256298162260308,-1.5044542943984114,-0.8895572351824788,-0.9879822040130097,0.39912207605469696,0.6290175623696623,0.525453185954313,-0.5289583385449395,0.04247203372921394,0.6540893328177406,-0.07294805763786716,0.7187922773840616,-0.20701679885807192,0.6596668006277506
-1.4876316331847454,1.7457044037037663,-0.071240817837249,-2.375608201165972,2.239240719859325,1.186879744780491,-1.7371803394957208,0.07075242792664925,-0.028274011570271443,-0.18290495134705242,-0.19477965075452278,0.4567461287854263,-0.671497546727339,0.5500317320215601
-2.443585533513221,-1.29357704538195,-2.854634816951659,-1.0285867474967723,1.325835413036288,1.5324486095169656,-1.7687355528614597,0.38235087363469167,0.6226013434524038,0.10851609294008235,0.6769061610964976,-0.10632672790873801,-0.656038996264275,-0.31639455017807366
-1.6320468820205798,1.1129929264241412,1.5167732512086602,-0.2350606238681987,1.9312016168772304,3.7170997513558013,-2.259734222024525,0.09549183850451273,-0.7277267543086444,0.5416155966064594,0.31327848917801265,0.5402218689219995,-0.5244897594594301,0.5787291359340327
-0.6748907122898693,-1.3357553808703861,-1.3444358371078287,-0.9494883217383325,2.40068976021267,3.5428404503027098,1.9659279650559918,-0.7158545937582196,-0.014615709044961074,0.485822255400799,-0.6759612660221255,-0.5545737994994329,0.42691305533550133,0.23080188675709473
0.12117017973592903,1.6007442605596802,-0.7679568482439545,-2.0802853576582607,-2.3715671422801656,0.9802687325247098,2.526914513330483,0.3211174075475344,-0.3929804894421791,0.018766594226810998,0.8509727792232207,0.20415427475473388,0.4463549145923321,0.18690546096823246
1.000398653693738,-0.9784774517282641,2.759013096946282,-1.3779131389396273,1.884946165030437,2.9167344345919513,-1.5600664230849441,-0.5902335962010072,-0.42556040767080777,0.17890093878702595,-0.417831698838266,-0.6127075938533368,0.6704458246196884,-0.02254932660653658
-0.281408725665214,-1.6048464208709463,0.727331226626796,-1.054434481304769,0.4960546334592193,3.0095919177733372,2.1855281670360056,-0.600269048288032,0.45530627140718444,0.6657344617409225,-0.6904600199009175,0.24024745279785104,0.35582305684460014,0.5821821661304409
-2.495937511607817,-0.9676190748003827,-2.424922238796361,-0.9603572460657741,-2.608825082485128,0.021908277623162997,-2.4992053396147993,0.42214235622960433,0.4549829440513726,0.516555728775886,0.0066256760671905,-0.198043777111209,-0.6035323873735106,0.7723233909156245
-0.3969604280709387,-0.5152782712922326,-0.7887184632292481,-2.4160280989949223,0.395812457460333,2.245298127204198,-1.5320636202975235,0.16207636480895893,-0.4204729582631339,0.46895226406518836,0.12986451145204816,0.8367195763730204,0.4245466718394457,0.3206176579814697
1.7636031813749296,-0.7293924292847072,-2.306372677425307,-1.4997296751931453,-1.0681644495950842,1.6042679885995654,2.758351547580775,0.45511965096697116,-0.5045781855493371,0.3248736346475763,0.29811077567704913,0.38803599145583756,-0.8712399619809067,0.038716448799183886
-1.320520198848327,-0.671724944096664,1.302355834367265,-2.914676345682315,-2.433347747037534,2.949701870486194,-1.991146695100585,0.2537078594881648,-0.05945579435585083,0.21212929667270053,-0.1870537738470689,-0.7850732395447835,0.4220814864818668,-0.41293838887839673
0.5818521102242711,1.6119806986586793,-2.519335265612833,-1.3476066464281564,0.2024590280793519,2.1310209293341544,1.7448513432305144,0.595673472511899,-0.018860239578977686,0.7765121870091384,0.6518475792876026,0.26049095063397376,-0.4273064352173683,0.5697792629049644
2.4442922439258097,-0.6862693883237392,2.1199559117532734,-2.8157729174967217,0.2370852879105736,3.5719442674302546,0.08873828288419894,-0.14351828830496616,-0.364481102065913,0.17974642790937007,-0.30633705923327786,-0.8101561467646028,0.4600482351420259,0.19534647512188297
-2.7341061892880947,0.6178265713879312,-0.9792756848500077,-0.8573533907276305,1.8352824212105774,1.2254965202706132,-1.381373470352133,-0.6628144124411841,-0.0626342026989611,0.7244377874489354,0.5393789468167673,0.7498832227317795,-0.32122290089749417,0.20871356432975846
-1.375567491319866,-1.6053158984036011,-2.6237673785995606,-0.1355992470179337,-0.12006718847711673,1.0021322219580533,-2.3574995128942056,-0.2139461201111708,0.670371338635759,0.13532658338151363,0.36609605756157737,0.7531862071033202,-0.5242114589055595,0.15455277551467272
2.4584397148572203,1.6629325427293002,0.18401079430038525,-1.2438741936353968,2.568941319539197,1.2597064665649464,2.1431558176026138,-0.5553185510768054,0.26129522224890556,-0.13693792361240312,0.5105243891043505,0.3302127644256708,-0.3265645700266817,-0.723657349816385
-0.39035790057515074,-1.1409874011508343,-2.797051241072337,-1.6677933632087991,-0.301047380294432,0.4903027607012869,-1.5543892372848391,-0.3972632493705305,0.05303027192353624,0.07396013460021723,-0.3270056182106176,0.4426959025580942,-0.08151421689291996,0.8309290559134996
2.5008950950416495,0.14705885159552157,1.64905186321869,-0.1992267250475135,-0.055112526604721435,3.301705175123732,1.8041604574007644,-0.0882364227930246,0.07376653147124453,1.1439875786442546,-0.5491189771211559,0.06852273332144837,0.015384906450521579,-0.8327882615869899
0.34513417327871077,-1.3978133605859187,0.38549758425112346,-0.07144977626257853,2.8541587145252376,2.79424790164745,-1.859251880899077,-0.7644505885263406,-0.25530173645714677,0.5552302716411033,-0.30609222913066786,-0.7381320309456749,0.09099803994693856,0.5942962299086598
-2.208972524574147,1.2782957317351609,2.8890006356785087,-0.09664490193114439,1.5031527382025538,3.639350277494698,0.10214840795465241,-0.32627212378968784,-0.6623090173657343,0.5524832780595952,-0.6170344467565974,-0.5566367849969928,-0.3101647263755479,0.4617594867638045
-0.5706958617755551,0.03753905684516656,2.8040398665305095,-2.2427058148578287,0.22219916302030063,3.336590802449846,-2.265641856125451,-0.325279129726428,0.4588830919008809,0.5212475166208391,0.16957039135643603,-0.6857596616538078,0.49552081052033736,0.5054094331974296
-1.644744493165586,-0.49333187921684885,0.09846961311833713,-2.3903917419349727,-1.5720176588690038,3.305862345013271,-2.4183436131999074,0.12060883788817903,-0.39849451330556185,0.5701940553080977,0.033188407682177734,-0.09212858856608894,0.8088766467363269,-0.5797666971540679
-1.2825402106653618,1.5120171194209404,-2.326352363028423,-0.18784930204345907,1.0278154053589614,3.0085655802570166,-2.393490318719315,0.23508050862857066,-0.7906992751993585,0.4670261595520712,0.11093320098124893,0.08235785122827832,0.6479637921351844,-0.7490353351764558
-1.8326594598363375,-0.6544816384612759,0.3231114240433599,-1.9392161005128985,0.6589749317639919,1.8244222724493913,1.7550229885415747,0.1350236905464713,-0.35572446837551486,0.764200065599929,-0.1515153072048549,0.30136811150756343,-0.8930385489882071,0.29782968802659626
1.0622670325606425,-0.7454696969519536,-1.036330806851456,-0.7285888276230224,-2.388129015985613,1.9059237785026357,-0.6640692804069745,0.04416008747720716,-0.5311500304802902,0.987084056969864,0.6430219433935888,0.693041601192266,0.02421210371261076,-0.3250075281666592
0.460972081551549,-0.48161588919821785,0.6493326408291016,-2.2456925677518598,-2.5744149935383063,1.0852412671575749,-0.3637093474346731,0.1641811221302725,0.3725995478346987,0.7361653307417712,0.9766984837336566,0.15509641246253011,0.057899207567435794,-0.13657546074127302
-1.5181917756727248,0.34661680020855057,-1.4194292641007173,-0.09715035393945914,-0.6722943565966366,1.5902627849535775,2.65273829433542,-0.1247480588537992,-0.23177220416809566,1.089431266496383,0.6472393170504149,-0.5532818761548464,-0.36862451386631223,0.37292948362862116
0.6081513923125335,0.08237953249122643,-2.0977132311940565,-1.649937165107299,-1.4788080827016683,1.5372440641141296,-2.769968452137505,-0.039266642709071625,-0.5449348763740642,0.7137137589890118,-0.5853849860708172,0.3658532267835308,0.6130939452995412,-0.38417658540310523
-2.474019857630118,-0.8718294512871521,-1.1932520036672964,-2.5068094044269515,1.5855744590167382,3.488021099636394,-1.4424666226139666,-0.2904160718703053,0.3207793079558208,0.36450713057364476,0.46015678561838425,-0.14316677389020377,-0.8756590671332527,-0.03130823614559805
2.6350356368908385,1.5664281476527209,-2.1254249117304838,-1.5301200502207501,-0.6168963880283811,2.0479244769089306,1.0838926219010854,-0.09031940040403308,0.6064576177055601,0.673184975799866,0.5365161284719355,0.37343640619696544,0.12279178036970753,0.7467381556407957
-1.6608334743011528,-1.607133789998132,-2.617256220014218,-0.9239779379638962,-2.6021143999221095,3.3946367638033377,-2.105743996171146,-0.22863723594037175,0.594824605391539,-0.059345471115189063,-0.3070800843848921,0.8883584156749629,0.2762318316100936,-0.20054207109474353
2.7139699145218654,1.072385038944438,1.3236606700698643,-1.4367109899010087,0.4764837017823589,1.9477013678548112,-0.5818002980293118,-0.6097990931222682,-0.34850741231252347,0.4287427556270532,-0.23214256277818462,-0.5796901308933589,0.4662216205013641,-0.6266630540160304
1.5018335421567754,-1.4550452774537304,0.4764200725060923,-1.137420606536854,2.701491271229885,2.20542977398824,0.3576809840514281,-0.2840734673833722,-0.5628463890505894,0.8459591020894176,-0.675078844636367,-0.3653950241206503,0.5381637912178465,-0.34804419790355723
-2.5279384598956436,1.5005160571485687,-2.3199293052495653,-2.5220289582846984,0.6602595603051844,0.12497572457360824,-2.84315436199731,-0.19084329758130059,0.14329270484250928,0.46533728773832106,0.476308844633172,0.5353449587091219,-0.6617363741104446,0.22054621032360164
0.22654597371967844,1.6332174219226303,2.4605292721661045,-2.400644019407245,-1.2035707393233184,1.7070563366528104,-0.8229658368518273,-0.06994218702408325,0.3422400506570102,0.6244939121353434,-0.07185337621026383,-0.5222798612199784,0.7571924466032491,0.38564288882100706
-1.456674685943032,-1.3761971111614895,-0.25180648767511915,-0.48327712753292795,-0.8881806218109576,2.1096535630855944,-1.0884222072149026,-0.18611149409134686,0.7149294642060773,0.739000384718026,0.8162217591753239,0.1778115808549617,-0.43487294343895483,-0.3362299876979107
2.148616594388519,0.8979053131129948,1.0827104222812878,-1.66613084432497,-2.780373632330887,2.1723455050767764,-0.6646137967823931,-0.7104210208486066,0.11713613555224263,0.340211225137919,0.33485522141184376,-0.7021324227699075,0.043951748200971474,0.6268574681844049
2.2248063102474647,1.3426279127957303,-2.1559743056290923,-2.8303774572186415,1.7859866965244442,1.7056319720523543,-2.077260051377379,0.34042121235866707,0.09009798398004631,0.40924589545684104,0.11405366574857725,0.4459086460140825,0.7975516287780879,0.38995979302053413
2.3832734530638366,1.4703027288326198,-0.03997105697118375,-1.7406727691883053,1.06853179745295,2.4838683895205214,-0.8761219600348493,-0.24978808296982888,0.2753895310735349,-0.24382541199523788,-0.01920155801545101,0.09349293105005291,0.9413607054756052,-0.32362075675073565
1.9195592342741148,1.005499003330649,-1.3676192826498639,-1.027258028977207,-1.1863537431886453,0.44743489706631195,-1.6804245431803904,0.19739065616362786,0.5086464629320893,0.6465917261796801,0.3555674667579668,0.46776036456781167,0.46779271875008377,-0.6602590326584818
1.7314405109449766,-1.246182171657189,0.4363086792592341,-2.4731675057848044,-2.6853126013326127,0.6274129298502724,-2.5907685582535698,-0.1352303707045025,-0.04082477416710181,0.8035918094562513,0.6304709247444882,0.23965901573001133,0.5246081239901301,-0.5194769344972955
-2.555969796395074,-1.5567181572026254,2.292412798700949,-2.4930181575949266,2.1219096850631423,1.3242111399282923,0.10154821508318923,0.20342481363280804,-0.20231619085408492,-0.05564981234681271,-0.31551230802199676,0.7380956138832955,-0.5888411454224751,-0.09451430426353649
2.656626995305586,-1.0271074489574588,2.4246524983783124,-1.18278491573609,-2.209028887457339,1.256869429480347,0.19885119424311526,0.4243029918048095,-0.6271605305148313,0.44216424449506886,-0.5783318077165625,-0.13544701664642267,-0.007867507572951182,0.8044405063082447
1.023723581716053,-0.16194587402864613,2.4640075413409623,-1.2830395272798516,-1.7684418732907181,1.5144390014153153,0.3703458380846074,-0.5509083758687063,-0.1382984344422954,0.8225135214091771,-0.012397869532238759,-0.1459815557455759,0.5809022538206228,0.8006798671874317
0.5527994502749309,0.6767045947389008,-2.702318087225176,-1.6758032730935235,-1.4237064160740387,0.248904080669421,-2.746939448177089,-0.0440691758432461,-0.10449961741264482,0.8562787231612352,-0.5248699234968619,0.8442557167079233,-0.05825186843006408,0.09138144252962288
-2.6367964858564945,-0.6036749366756797,-0.5508702678525514,-2.939899409251332,1.9738018076530346,2.4492899741072143,-2.545258195538723,-0.3216885310594363,-0.017847010287171526,0.31521964677895004,0.6266910273232305,0.5304451043723769,-0.5697171713627781,0.03617585070632859
-1.9904879449013695,0.06838933623902643,-2.0876242300723136,-0.8694892473844398,1.6248099320786324,1.7340530331048132,0.246340113049071,-0.32945656739796986,0.22365930954955018,1.0372329367196125,0.6724331607223959,0.08266312698791406,-0.6695559125458321,0.304459080620674
-2.7288583723757847,1.7489603696894793,1.9252508415153913,-0.7435590145390418,0.25239021007032036,2.367484156858219,-1.6618872169326686,-0.5527920129484154,-0.6336765684705876,0.33415512206125375,0.6751154358927173,0.4598383264451291,-0.21506020122117778,0.5352728011044794
-1.8156191802426782,0.5481257553708492,-0.4682573586431191,-0.5679211254564036,0.602243631888995,2.793058242122172,0.8216835161844687,-0.283498915362326,-0.5586445822631274,0.9146554387379626,0.5580982200957318,0.2613263210742196,-0.5946675693820647,0.5163384670591723
2.059234856729773,-1.0346017575581945,-2.080230876402826,-1.3366732926243206,-0.2419300381494578,2.266454354391131,2.322838810626361,0.7079437757119437,-0.2687263416186149,0.3389255674897944,-0.335879411701671,0.5628968707185463,-0.7525139948919519,-0.06367747813758168
2.3019882107125533,0.5172532741536244,-1.6170693856953262,-2.1927581113863863,1.0847171299530656,0.6151608696116517,0.8650455536208352,0.18277460885510172,0.36772496048912867,0.3961744992975042,-0.08787580791243815,0.7077476075139733,0.1514520362138737,-0.6844219803371703
2.1940742099992154,-1.6870726152990063,1.9170786610094068,-1.3882750395201389,-2.0742108002433017,0.9585121606212837,0.0863637384470195,-0.06473170391140776,-0.6948464239899802,0.23459440461610503,-0.16532853938728392,0.25361917614400514,-0.09972570277643195,0.9478388954679213
-1.2892103128361463,-1.6298479081545127,0.16467674613710725,-2.93040945196538,1.8895600933111898,2.30995404893342,-2.1682793104593863,0.10573963403468029,-0.13452648690834978,0.6144704219671321,0.6453193529045049,0.5104366033141661,0.3127938340462074,0.47452863364256564
1.0565897049437685,-1.2111315619996597,-0.18263243153258557,-1.6431002793397171,2.055215281664703,2.9355897928561085,1.3730773243102985,0.08842535113735114,-0.1756451774440656,0.9847664343034287,-0.9472793872673725,0.11663935659401324,-0.11937599688231353,-0.27350757634851575
0.9240030830365855,-1.4006170569455663,-1.383088564259001,-1.8784427115775313,-2.3654229546065046,1.4151249596558233,-0.809995313979865,0.25795017204583065,-0.6074912476016042,0.4134706963942077,0.2678937814344751,0.7399553901036988,0.46968538131689397,-0.4001182139098691
1.9998843051988717,-0.7150047190576343,1.2982077033429316,-1.7239882883754938,-1.65237633108558,2.347214135369882,0.6805179635976719,-0.5005009680879922,-0.3107822328004938,0.6910153089832762,-0.16657549281933703,-0.36149774638740717,0.3187635965346381,0.8602102964235678
-0.7107094206387754,-0.5576631541060257,-2.3664786024816618,-2.432711961092227,-1.3278810432591677,0.22032483595523578,1.9844530530536608,-0.3415631521513969,0.09876600039149613,0.279581227535041,-0.3087831149427643,-0.07713172164281402,-0.3255403962820439,-0.8903522537912667
-0.6109039284226618,-0.11982340964337501,2.177923208508808,-1.526513977773691,-1.7726911970418977,1.353124876534093,1.5747119127155735,0.08075220192313252,0.5532188967901251,0.7488915223865605,0.37231736955093425,0.5744866886894897,0.15166835916173307,0.7129807358396474
2.526653366250899,-0.9350483658648906,1.9642948264084015,-2.3621372993004814,0.7812004533672154,0.9557848837596361,2.5649736259713234,-0.03953871772317284,-0.320385243696016,0.16785925674379293,0.04324723680984341,0.48245291845869737,0.5949152583570128,0.6414395476995522
2.293447496433713,0.8632952316412732,-1.4644337330350627,-2.069569724912432,1.4477032992719407,3.3913836102054753,-0.7464714115662936,0.3434190918790376,0.43672008373771065,0.4888470294385964,0.25233711734628844,0.5979599546463752,0.4760470499244337,0.5934215012172314
-1.443476722109084,0.6844467226999598,-2.4898202414081054,-2.203421094894862,-0.10005875895417393,0.25251556670420694,1.6837674965145442,-0.19298598492904556,0.10003835673303665,0.5810104874977059,-0.6170239984646766,-0.683070746618284,-0.3430838168261206,-0.1870540966272128
-1.7027716475553007,-1.6221911985404502,0.6287895487482675,-1.6121813207036897,1.2755259140893682,3.615227931867219,2.142905581309727,0.26746251100287416,0.4105806087311804,0.8079593046692437,-0.4529425859440456,0.11353331606694032,0.010804942026636268,0.8842151622817636
1.8727672012911873,-0.40969966718675743,0.644574240862291,-0.7999196022494615,-0.3165880571953976,1.3068793608895455,1.601599244121021,-0.24225096462673557,0.024751701470427614,1.0247824628923297,-0.4283928245034854,0.6310848128732299,0.6155843403825123,0.19816020475996904
2.1132001761405665,-0.7142105064137039,2.0301076719449136,-1.0920579029277138,2.8133892508649336,0.37285958494481847,-0.676399683544215,0.08153549266800603,-0.5751616859041128,0.711965766606986,0.14337325795686137,-0.5102354881397332,-0.42130327426450104,-0.7359398118322267
-1.6460288084871644,0.2932450388102814,0.7723973806454172,-1.9398302330184014,0.12488577481047702,0.5485529685062462,-0.1398436163370107,0.254838942958239,-0.31379966744904164,0.40066560667325973,-0.6428767733352361,0.6827086090004035,0.09648168766669343,-0.3336310738642235
-2.493353311157132,-1.5993500380334535,-0.2891718901073559,-1.8305906258941644,1.2343948719348883,2.8968708138682433,-2.445712496062693,0.10305069948058099,0.3604466255165316,0.8845006844234581,0.7959945732872327,0.13916337585567307,-0.06359001190032834,-0.5856470818711933
-0.35203732084929973,1.0299107732292598,-2.2453621639316186,-2.3875181595914006,1.4025829498550535,3.4532578675182015,1.0879622124730024,-0.24630230357040328,-0.2249318094050534,0.6885729189503856,0.68707753738781,-0.2912340709122041,-0.5468892883481147,0.37949872179903266
-2.053301543843267,1.3145483245231615,2.8442054534414356,-1.6449603157641652,1.1844232530615746,0.5659676056898926,1.9423964774989817,-0.08624700520749179,-0.1816841578563276,0.8425286516348073,-0.313289399351619,0.8141668652000154,0.42489132374518,-0.24176317103800093
0.7537947245002696,-0.025375337733182013,1.95327799821399,-3.009199223105231,-0.08047991171784785,2.275956509846551,0.7025352934422808,-0.18501408399297892,0.09304318829793577,0.13899343965778166,0.35858974098797114,0.13210276392314702,0.9218962671614856,-0.06379286806346833
-0.21264811278879492,0.01802736460761456,1.5187268617335907,-1.120337584859952,-1.7956000576052071,0.3370712732925507,0.4125296957078657,0.20379997359560575,0.2727713818898824,0.880466088906353,0.5701504343775489,0.8202200153462732,0.0442053031189279,0.014611631688992432
1.0975925106728943,0.3910927597743483,0.8117167197711472,-1.0665386206299194,1.7213309277078879,2.9790167103894203,-0.781499412603802,-0.002630329675887333,0.6691553353131239,0.7612779085880595,-0.7404226232850897,0.42705536754271567,0.4208076383027617,0.3038403915325176
-1.4720369951130825,0.933785659050677,-0.2990934971452601,-0.4465895935304527,-2.200867169715751,1.610562153161371,2.170355389381569,-0.05456858084082247,-0.7336424273425344,0.7110642815646752,0.9357617837916048,-0.05179302107728527,-0.34359923229418593,-0.06005775994562712
-0.055592347926521235,0.523394071176666,1.9137836386967941,-0.2738111037443316,-1.3173371069457889,2.3462489637581294,0.30770737806097914,0.39571631293541654,0.12214564074913445,1.0782977931161957,-0.062176268905284826,0.5259429869139122,0.29117826311607814,0.796701515744631
-1.3289049498456966,1.14710920242729,2.290192316223498,-2.3794047823232334,-2.2029120149373793,0.9689841311704303,0.5500447341670744,0.4264719794606255,0.0680308030940363,0.6004449172734742,0.6263228493224957,0.6925426134855623,0.32662056647974763,0.14636742286309884
-1.2577608230714954,-0.10466738690237154,0.8714272258399003,-1.4429493720217756,-0.7690087906940488,1.5899910688337848,2.7403258223145968,0.47051550758574373,-0.23550642410679457,0.7570892161590836,0.21989066752815203,0.3250849908132165,-0.8461323630758719,0.3605937703810693
-0.09370155030684213,1.7134269167182041,-2.5154565522197743,-0.1373546676168358,-2.162474406124219,1.9653199735014544,1.7154803903817561,0.8323736412674284,-0.054488345789674195,0.27319183535934155,0.6976545377748503,-0.5045747320900134,0.48855369264373016,0.14141348967699516
-1.482538393651387,1.2743734680635388,2.0009795460711186,-0.11952163975264485,1.9418880422775202,0.4536398160269957,-0.8810056005170819,-0.0015179174013904145,-0.5987679637902903,0.6241538741981701,0.10313428189844251,-0.4341162068220437,0.5607608255573194,0.6974623541037938
0.7138860912481806,-0.30657885295368326,-2.1288935126287742,-1.8430843064312694,-0.4361303265923131,0.11212427707975516,-2.301076510495664,-0.030884514443687217,-0.39841630800194927,0.4856866076403045,-0.6893218143107233,0.4012282117562967,0.43077982820550675,0.4222322796961998
0.8071543852397034,-1.1773102043274957,-0.5071292450141787,-0.9378547609677628,0.7680786768759775,2.422974467027666,2.1953367693878465,-0.17552260368502504,-0.5004115432690025,0.9672877240461963,-0.9724486161769689,0.12707385815595487,-0.1051227477353309,0.164757796105168
-1.8330282006872307,1.2542694241990149,-1.0457393477109977,-1.971822663797439,-0.3054554424923577,2.369381541607849,-0.0741999846312571,-0.5631133614257333,-0.11846820075048813,0.10973237839215524,-0.33013890819917857,0.5882003388314764,-0.5493971970421511,-0.4931443830906097
0.5205600333642444,-1.1823193643740137,-2.1719338027568593,-0.41626900529775046,0.22121275856087763,2.8125475713709127,1.5308624597211886,-0.640625580456822,-0.5231471827583483,0.5527477466875306,0.05495030816017174,-0.23536581014191674,-0.6733338652004777,0.6987166128148987
1.7698626841007594,0.014234848059077487,2.784819893831457,-2.2543966486963862,1.582225604383639,1.232597633116064,2.1306023130226106,0.05436669672385318,-0.48313958223281467,0.4484826852376115,0.7547676375770452,0.09577663561177224,0.6174195318691893,0.19986438152829203
-0.23759966967931678,0.22882100201693434,2.6535526070452984,-1.1651846388063796,-1.8002710876578079,2.808284061617439,-2.1668404664154597,-0.2837587129176454,0.2801054836521145,1.0127473827121105,0.8309921081000979,-0.46675662993866857,-0.013018906855210538,0.30235884764290677
-0.2192042404884864,-1.604750429644501,-0.341624996016868,-2.723500842672812,2.6854337348081043,3.542916895177534,2.1774334659217254,0.06685841523735364,-0.14917690010846993,0.5435844048181704,-0.6418806764570413,-0.5288259177047175,-0.4553835943484432,-0.31773908785842786
-0.3717134690167012,-0.23036793627489383,0.31935970504094113,-2.5362403075470277,-2.4417550043213083,0.8122960773571236,1.87371104167481,0.40923111154003655,-0.09851655177289405,0.5492782178849329,0.9402985438190954,0.1740365817472225,-0.12941015511220139,0.26230312323582167
-0.6718064489711968,-0.2385570543027058,-1.2687064289755474,-2.59914537652628,1.3712498032244143,3.4881178776162054,-0.17975023632464948,-0.2531016896336272,-0.34094587180043245,0.31719102448947756,0.26243793327965625,0.2864809522146856,-0.9004789765716088,0.1954292914243333
-0.20294517809604606,-1.6189333149886163,-2.025033908885858,-0.7774227557506244,-1.7085621315757011,0.34682764197509336,-1.241604909346037,-0.6172028785990381,-0.03278237357633601,0.09621313622384407,-0.6406701023049598,0.633994249335212,-0.2862952365798598,0.3250048450932917
